;FLAVOR:Marlin
;TIME:361
;Filament used: 0.194242m
;Layer height: 0.25
;MINX:94
;MINY:91.5
;MINZ:0.3
;MAXX:126
;MAXY:128.5
;MAXZ:2.8
;Generated with Cura_SteamEngine 5.0.0
M104 S180
M105
M109 S180
M82 ;absolute extrusion mode
;Sliced at: Thu 07-07-2022 20:44:37
;Basic settings: Layer height: 0.25 Walls: 0.4 Fill: {fill_density}
;Print time: 00:06:01
;Filament used: [0.19]m [0.5793352807617188]g
;Filament cost: [0.0]
;M190 S0.0 ;Uncomment to add your own bed temperature line
;M109 S180.0 ;Uncomment to add your own temperature line
G21        ;metric values
G90        ;absolute positioning
M82        ;set extruder to absolute mode
M107       ;start with the fan off
M302 S100  ;allow printing above 100 C
G28 X0 Y0  ;move X/Y to min endstops
G28 Z0     ;move Z to min endstops
G1 Z15.0 F150.0 ;move the platform down 15mm
G92 E0                  ;zero the extruded length
G1 F200 E3              ;extrude 3mm of feed stock
G92 E0                  ;zero the extruded length again
G1 F150.0
;Put printing message on LCD screen
M117 Printing...
G92 E0
G92 E0
G1 F2400 E-6.5
;LAYER_COUNT:11
;LAYER:0
M107
G0 F6000 X97.198 Y94.764 Z0.3
G0 X94.001 Y103.025
;TYPE:SKIRT
G1 F2400 E0
G1 F1200 X94.01 Y102.36 E0.03318
G1 X94.063 Y101.424 E0.07995
G1 X94.195 Y100.495 E0.12677
G1 X94.406 Y99.581 E0.17356
G1 X94.694 Y98.689 E0.22033
G1 X95.057 Y97.824 E0.26713
G1 X95.492 Y96.993 E0.31393
G1 X95.996 Y96.203 E0.36068
G1 X96.566 Y95.458 E0.40748
G1 X97.198 Y94.764 E0.4543
G1 X97.886 Y94.127 E0.50108
G1 X98.626 Y93.551 E0.54787
G1 X99.412 Y93.039 E0.59467
G1 X100.239 Y92.597 E0.64145
G1 X101.101 Y92.227 E0.68825
G1 X101.991 Y91.931 E0.73504
G1 X102.903 Y91.713 E0.78182
G1 X103.83 Y91.572 E0.8286
G1 X104.701 Y91.513 E0.87216
G1 X105.33 Y91.5 E0.90355
G1 X114.293 Y91.5 E1.35071
G1 X115.149 Y91.511 E1.39342
G1 X116.085 Y91.565 E1.4402
G1 X117.013 Y91.697 E1.48696
G1 X117.927 Y91.909 E1.53377
G1 X118.819 Y92.198 E1.58055
G1 X119.684 Y92.561 E1.62735
G1 X120.514 Y92.997 E1.67412
G1 X121.305 Y93.502 E1.72094
G1 X122.049 Y94.073 E1.76773
G1 X122.742 Y94.705 E1.81453
G1 X123.379 Y95.393 E1.8613
G1 X123.954 Y96.134 E1.9081
G1 X124.465 Y96.92 E1.95487
G1 X124.907 Y97.748 E2.0017
G1 X125.276 Y98.61 E2.04848
G1 X125.571 Y99.5 E2.09525
G1 X125.789 Y100.412 E2.14204
G1 X125.929 Y101.34 E2.18886
G1 X125.987 Y102.201 E2.23191
G1 X126 Y102.83 E2.2633
G1 X125.999 Y116.9 E2.96525
G1 X125.99 Y117.627 E3.00153
G1 X125.939 Y118.564 E3.04834
G1 X125.807 Y119.492 E3.09511
G1 X125.598 Y120.406 E3.14188
G1 X125.311 Y121.299 E3.18868
G1 X124.949 Y122.165 E3.23551
G1 X124.515 Y122.996 E3.28228
G1 X124.011 Y123.787 E3.32907
G1 X123.442 Y124.532 E3.37584
G1 X122.811 Y125.227 E3.42268
G1 X122.124 Y125.865 E3.46945
G1 X121.385 Y126.442 E3.51623
G1 X120.599 Y126.954 E3.56303
G1 X119.773 Y127.397 E3.60979
G1 X118.911 Y127.769 E3.65663
G1 X118.022 Y128.065 E3.70337
G1 X117.11 Y128.285 E3.75018
G1 X116.183 Y128.426 E3.79696
G1 X115.299 Y128.487 E3.84117
G1 X114.67 Y128.5 E3.87255
G1 X105.565 Y128.499 E4.3268
G1 X104.867 Y128.49 E4.36163
G1 X103.931 Y128.438 E4.4084
G1 X103.002 Y128.306 E4.45521
G1 X102.088 Y128.096 E4.502
G1 X101.195 Y127.809 E4.5488
G1 X100.33 Y127.446 E4.5956
G1 X99.499 Y127.012 E4.64237
G1 X98.708 Y126.508 E4.68916
G1 X97.963 Y125.938 E4.73596
G1 X97.269 Y125.307 E4.78276
G1 X96.632 Y124.62 E4.8295
G1 X96.055 Y123.88 E4.87631
G1 X95.543 Y123.094 E4.92311
G1 X95.1 Y122.267 E4.96992
G1 X94.729 Y121.406 E5.01669
G1 X94.433 Y120.516 E5.06349
G1 X94.214 Y119.604 E5.11028
G1 X94.073 Y118.677 E5.15706
G1 X94.013 Y117.788 E5.20151
G1 X94 Y117.158 E5.23295
G1 X94.001 Y103.025 E5.93805
G0 F6000 X94.401 Y103.031
G1 F1200 X94.41 Y102.366 E5.97123
G1 X94.462 Y101.446 E6.0172
G1 X94.594 Y100.535 E6.06313
G1 X94.805 Y99.639 E6.10905
G1 X95.092 Y98.764 E6.15499
G1 X95.455 Y97.918 E6.20092
G1 X95.889 Y97.106 E6.24686
G1 X96.392 Y96.335 E6.29278
G1 X96.961 Y95.611 E6.33872
G1 X97.589 Y94.939 E6.38461
G1 X98.274 Y94.323 E6.43057
G1 X99.01 Y93.77 E6.4765
G1 X99.791 Y93.282 E6.52245
G1 X100.611 Y92.864 E6.56836
G1 X101.465 Y92.519 E6.61432
G1 X102.345 Y92.249 E6.66024
G1 X103.245 Y92.057 E6.70615
G1 X104.159 Y91.943 E6.7521
G1 X104.712 Y91.913 E6.77973
G1 X105.33 Y91.9 E6.81057
G1 X114.293 Y91.9 E7.25774
G1 X115.143 Y91.911 E7.30015
G1 X116.062 Y91.964 E7.34607
G1 X116.973 Y92.097 E7.39201
G1 X117.869 Y92.308 E7.43793
G1 X118.743 Y92.596 E7.48384
G1 X119.59 Y92.959 E7.52981
G1 X120.401 Y93.394 E7.57573
G1 X121.171 Y93.898 E7.62164
G1 X121.895 Y94.467 E7.66758
G1 X122.567 Y95.097 E7.71354
G1 X123.182 Y95.782 E7.75947
G1 X123.735 Y96.518 E7.80539
G1 X124.222 Y97.299 E7.85131
G1 X124.639 Y98.12 E7.89725
G1 X124.984 Y98.974 E7.9432
G1 X125.253 Y99.854 E7.98911
G1 X125.445 Y100.755 E8.03507
G1 X125.558 Y101.668 E8.08097
G1 X125.596 Y102.532 E8.12412
G1 X125.599 Y116.895 E8.84069
G1 X125.59 Y117.622 E8.87696
G1 X125.539 Y118.541 E8.92288
G1 X125.408 Y119.453 E8.96885
G1 X125.198 Y120.349 E9.01476
G1 X124.912 Y121.224 E9.06069
G1 X124.551 Y122.071 E9.10663
G1 X124.117 Y122.883 E9.15256
G1 X123.615 Y123.655 E9.1985
G1 X123.047 Y124.38 E9.24445
G1 X122.419 Y125.053 E9.29037
G1 X121.735 Y125.669 E9.3363
G1 X121 Y126.223 E9.38222
G1 X120.22 Y126.712 E9.42815
G1 X119.4 Y127.131 E9.47409
G1 X118.547 Y127.477 E9.52001
G1 X117.667 Y127.748 E9.56595
G1 X116.767 Y127.941 E9.61187
G1 X115.853 Y128.056 E9.65783
G1 X115.288 Y128.087 E9.68606
G1 X114.67 Y128.1 E9.7169
G1 X105.57 Y128.099 E10.1709
G1 X104.872 Y128.09 E10.20573
G1 X103.953 Y128.038 E10.25165
G1 X103.042 Y127.907 E10.29757
G1 X102.146 Y127.697 E10.34348
G1 X101.271 Y127.41 E10.38942
G1 X100.424 Y127.048 E10.43538
G1 X99.612 Y126.614 E10.48131
G1 X98.841 Y126.112 E10.52721
G1 X98.116 Y125.544 E10.57316
G1 X97.443 Y124.915 E10.61912
G1 X96.828 Y124.231 E10.66501
G1 X96.274 Y123.496 E10.71093
G1 X95.786 Y122.715 E10.75687
G1 X95.367 Y121.895 E10.80281
G1 X95.021 Y121.042 E10.84874
G1 X94.751 Y120.162 E10.89466
G1 X94.558 Y119.261 E10.94063
G1 X94.444 Y118.348 E10.98654
G1 X94.413 Y117.777 E11.01507
G1 X94.4 Y117.158 E11.04595
G1 X94.401 Y103.031 E11.75075
G0 F6000 X94.801 Y103.036
G1 F1200 X94.81 Y102.371 E11.78393
G1 X94.862 Y101.469 E11.82901
G1 X94.994 Y100.576 E11.87404
G1 X95.204 Y99.698 E11.91908
G1 X95.491 Y98.841 E11.96417
G1 X95.853 Y98.014 E12.00921
G1 X96.286 Y97.222 E12.05425
G1 X96.788 Y96.471 E12.09931
G1 X97.355 Y95.767 E12.14441
G1 X97.981 Y95.117 E12.18943
G1 X98.662 Y94.524 E12.23448
G1 X99.394 Y93.994 E12.27957
G1 X100.169 Y93.531 E12.32461
G1 X100.982 Y93.138 E12.36966
G1 X101.827 Y92.818 E12.41474
G1 X102.696 Y92.575 E12.45976
G1 X103.584 Y92.409 E12.50483
G1 X104.723 Y92.313 E12.56185
G1 X105.33 Y92.3 E12.59214
G1 X114.293 Y92.3 E13.03931
G1 X115.137 Y92.311 E13.08142
G1 X116.039 Y92.364 E13.1265
G1 X116.932 Y92.496 E13.17154
G1 X117.81 Y92.707 E13.21659
G1 X118.666 Y92.995 E13.26164
G1 X119.493 Y93.357 E13.30668
G1 X120.285 Y93.792 E13.35176
G1 X121.036 Y94.294 E13.39683
G1 X121.739 Y94.861 E13.44189
G1 X122.389 Y95.488 E13.48695
G1 X122.981 Y96.17 E13.532
G1 X123.511 Y96.901 E13.57705
G1 X123.973 Y97.677 E13.62211
G1 X124.366 Y98.49 E13.66716
G1 X124.684 Y99.335 E13.7122
G1 X124.927 Y100.205 E13.75727
G1 X125.092 Y101.093 E13.80233
G1 X125.187 Y102.223 E13.8589
G1 X125.2 Y102.83 E13.88919
G1 X125.199 Y116.89 E14.59065
G1 X125.19 Y117.617 E14.62692
G1 X125.139 Y118.519 E14.672
G1 X125.008 Y119.413 E14.71707
G1 X124.799 Y120.291 E14.7621
G1 X124.513 Y121.148 E14.80717
G1 X124.152 Y121.976 E14.85224
G1 X123.72 Y122.768 E14.89725
G1 X123.219 Y123.52 E14.94233
G1 X122.653 Y124.224 E14.9874
G1 X122.028 Y124.875 E15.03242
G1 X121.347 Y125.469 E15.0775
G1 X120.616 Y126 E15.12258
G1 X119.842 Y126.464 E15.1676
G1 X119.029 Y126.858 E15.21267
G1 X118.185 Y127.178 E15.25771
G1 X117.315 Y127.423 E15.3028
G1 X116.428 Y127.589 E15.34782
G1 X115.277 Y127.687 E15.40545
G1 X114.67 Y127.7 E15.43574
G1 X105.575 Y127.699 E15.88949
G1 X104.877 Y127.69 E15.92432
G1 X103.976 Y127.639 E15.96934
G1 X103.082 Y127.507 E16.01443
G1 X102.204 Y127.298 E16.05946
G1 X101.347 Y127.011 E16.10455
G1 X100.52 Y126.65 E16.14956
G1 X99.727 Y126.217 E16.19464
G1 X98.976 Y125.716 E16.23968
G1 X98.272 Y125.15 E16.28475
G1 X97.621 Y124.524 E16.3298
G1 X97.028 Y123.843 E16.37486
G1 X96.498 Y123.112 E16.4199
G1 X96.034 Y122.337 E16.46497
G1 X95.64 Y121.524 E16.51004
G1 X95.32 Y120.68 E16.55507
G1 X95.076 Y119.81 E16.60015
G1 X94.91 Y118.922 E16.64522
G1 X94.813 Y117.767 E16.70305
G1 X94.8 Y117.158 E16.73344
G1 X94.801 Y103.036 E17.43799
G1 F2400 E10.93799
;MESH:Body3.stl
G0 F6000 X104.335 Y103.036
G0 X105.43 Y103.036
G0 X105.51 Y117.02
G1 F2400 E17.43799
G0 F6000 X105.2 Y117.3
;TYPE:WALL-OUTER
G1 F1200 X114.8 Y117.3 E17.91693
G1 X114.8 Y107.5 E18.40586
G1 X114.8 Y102.7 E18.64533
G1 X105.2 Y102.7 E19.12428
G1 X105.2 Y117.3 E19.85267
G0 F6000 X105.56 Y116.94
;TYPE:SKIN
G1 F1200 X114.44 Y116.94 E20.2957
G1 X114.44 Y107.5 E20.76666
G1 X114.44 Y103.06 E20.98817
G1 X105.56 Y103.06 E21.4312
G1 X105.56 Y116.94 E22.12367
G0 F6000 X105.991 Y116.739
G1 F1200 X105.759 Y116.507 E22.14004
G0 F6000 X105.759 Y115.941
G1 F1200 X106.556 Y116.739 E22.19631
G0 F6000 X107.122 Y116.739
G1 F1200 X105.759 Y115.375 E22.29251
G0 F6000 X105.759 Y114.81
G1 F1200 X107.688 Y116.739 E22.42862
G0 F6000 X108.253 Y116.739
G1 F1200 X105.759 Y114.244 E22.60462
G0 F6000 X105.759 Y113.678
G1 F1200 X108.819 Y116.739 E22.82055
G0 F6000 X109.385 Y116.739
G1 F1200 X105.759 Y113.113 E23.07638
G0 F6000 X105.759 Y112.547
G1 F1200 X109.95 Y116.739 E23.37212
G0 F6000 X110.516 Y116.739
G1 F1200 X105.759 Y111.981 E23.70778
G0 F6000 X105.759 Y111.415
G1 F1200 X111.082 Y116.739 E24.08339
G0 F6000 X111.647 Y116.739
G1 F1200 X105.759 Y110.85 E24.49885
G0 F6000 X105.759 Y110.284
G1 F1200 X112.213 Y116.739 E24.95425
G0 F6000 X112.779 Y116.739
G1 F1200 X105.759 Y109.718 E25.44959
G0 F6000 X105.759 Y109.153
G1 F1200 X113.344 Y116.739 E25.98478
G0 F6000 X113.91 Y116.739
G1 F1200 X105.759 Y108.587 E26.55992
G0 F6000 X105.759 Y108.021
G1 F1200 X114.24 Y116.502 E27.1583
G0 F6000 X114.24 Y115.937
G1 F1200 X105.759 Y107.456 E27.75668
G0 F6000 X105.759 Y106.89
G1 F1200 X114.24 Y115.371 E28.35506
G0 F6000 X114.24 Y114.805
G1 F1200 X105.759 Y106.324 E28.95344
G0 F6000 X105.759 Y105.759
G1 F1200 X114.24 Y114.24 E29.55182
G0 F6000 X114.24 Y113.674
G1 F1200 X105.759 Y105.193 E30.1502
G0 F6000 X105.759 Y104.627
G1 F1200 X114.24 Y113.108 E30.74858
G0 F6000 X114.24 Y112.543
G1 F1200 X105.759 Y104.062 E31.34696
G0 F6000 X105.759 Y103.496
G1 F1200 X114.24 Y111.977 E31.94534
G0 F6000 X114.24 Y111.411
G1 F1200 X106.088 Y103.26 E32.52047
G0 F6000 X106.654 Y103.26
G1 F1200 X114.24 Y110.846 E33.05571
G0 F6000 X114.24 Y110.28
G1 F1200 X107.22 Y103.26 E33.551
G0 F6000 X107.785 Y103.26
G1 F1200 X114.24 Y109.714 E34.0064
G0 F6000 X114.24 Y109.149
G1 F1200 X108.351 Y103.26 E34.4219
G0 F6000 X108.917 Y103.26
G1 F1200 X114.24 Y108.583 E34.79747
G0 F6000 X114.24 Y108.017
G1 F1200 X109.482 Y103.26 E35.13314
G0 F6000 X110.048 Y103.26
G1 F1200 X114.24 Y107.451 E35.42887
G0 F6000 X114.24 Y106.886
G1 F1200 X110.614 Y103.26 E35.68471
G0 F6000 X111.179 Y103.26
G1 F1200 X114.24 Y106.32 E35.90064
G0 F6000 X114.24 Y105.754
G1 F1200 X111.745 Y103.26 E36.07664
G0 F6000 X112.311 Y103.26
G1 F1200 X114.24 Y105.189 E36.21274
G0 F6000 X114.24 Y104.623
G1 F1200 X112.876 Y103.26 E36.30894
G0 F6000 X113.442 Y103.26
G1 F1200 X114.24 Y104.057 E36.36521
G0 F6000 X114.24 Y103.492
G1 F1200 X114.008 Y103.26 E36.38158
G0 F6000 X114.008 Y103.31
G1 F2400 E29.88158
;MESH:NONMESH
G0 F300 X114.008 Y103.31 Z0.55
G0 F6000 X105.48 Y117.02
G1 F2400 E36.38158
G0 F6000 X105.2 Y117.3
;TIME_ELAPSED:46.165793
;LAYER:1
M106 S85
;TYPE:WALL-OUTER
;MESH:Body3.stl
G1 F825 X114.8 Y117.3 E36.7807
G1 X114.8 Y107.5 E37.18814
G1 X114.8 Y102.7 E37.3877
G1 X105.2 Y102.7 E37.78682
G1 X105.2 Y117.3 E38.39382
G0 F7500 X105.56 Y116.94
;TYPE:SKIN
G1 F1050 X114.44 Y116.94 E38.76301
G1 X114.44 Y103.06 E39.34007
G1 X105.56 Y103.06 E39.70926
G1 X105.56 Y116.94 E40.28632
G0 F7500 X114.239 Y116.56
G1 F1050 X114.059 Y116.739 E40.29687
G0 F7500 X113.494 Y116.739
G1 F1050 X114.239 Y115.994 E40.34068
G0 F7500 X114.239 Y115.428
G1 F1050 X112.928 Y116.739 E40.41776
G0 F7500 X112.362 Y116.739
G1 F1050 X114.239 Y114.863 E40.52809
G0 F7500 X114.239 Y114.297
G1 F1050 X111.797 Y116.739 E40.67167
G0 F7500 X111.231 Y116.739
G1 F1050 X114.239 Y113.731 E40.84853
G0 F7500 X114.239 Y113.166
G1 F1050 X110.665 Y116.739 E41.05864
G0 F7500 X110.1 Y116.739
G1 F1050 X114.239 Y112.6 E41.302
G0 F7500 X114.239 Y112.034
G1 F1050 X109.534 Y116.739 E41.57863
G0 F7500 X108.968 Y116.739
G1 F1050 X114.239 Y111.469 E41.88852
G0 F7500 X114.239 Y110.903
G1 F1050 X108.403 Y116.739 E42.23165
G0 F7500 X107.837 Y116.739
G1 F1050 X114.239 Y110.337 E42.60806
G0 F7500 X114.239 Y109.771
G1 F1050 X107.271 Y116.739 E43.01776
G0 F7500 X106.705 Y116.739
G1 F1050 X114.239 Y109.206 E43.4607
G0 F7500 X114.239 Y108.64
G1 F1050 X106.14 Y116.739 E43.93689
G0 F7500 X105.759 Y116.554
G1 F1050 X114.239 Y108.074 E44.43548
G0 F7500 X114.239 Y107.509
G1 F1050 X105.759 Y115.988 E44.93404
G0 F7500 X105.759 Y115.423
G1 F1050 X114.239 Y106.943 E45.43263
G0 F7500 X114.239 Y106.377
G1 F1050 X105.759 Y114.857 E45.93122
G0 F7500 X105.759 Y114.291
G1 F1050 X114.239 Y105.812 E46.42979
G0 F7500 X114.239 Y105.246
G1 F1050 X105.759 Y113.726 E46.92838
G0 F7500 X105.759 Y113.16
G1 F1050 X114.239 Y104.68 E47.42697
G0 F7500 X114.239 Y104.115
G1 F1050 X105.759 Y112.594 E47.92553
G0 F7500 X105.759 Y112.029
G1 F1050 X114.239 Y103.549 E48.42412
G0 F7500 X113.963 Y103.259
G1 F1050 X105.759 Y111.463 E48.90649
G0 F7500 X105.759 Y110.897
G1 F1050 X113.398 Y103.259 E49.3556
G0 F7500 X112.832 Y103.259
G1 F1050 X105.759 Y110.331 E49.77144
G0 F7500 X105.759 Y109.766
G1 F1050 X112.266 Y103.259 E50.15402
G0 F7500 X111.7 Y103.259
G1 F1050 X105.759 Y109.2 E50.50333
G0 F7500 X105.759 Y108.634
G1 F1050 X111.135 Y103.259 E50.81939
G0 F7500 X110.569 Y103.259
G1 F1050 X105.759 Y108.069 E51.1022
G0 F7500 X105.759 Y107.503
G1 F1050 X110.003 Y103.259 E51.35173
G0 F7500 X109.438 Y103.259
G1 F1050 X105.759 Y106.937 E51.56801
G0 F7500 X105.759 Y106.372
G1 F1050 X108.872 Y103.259 E51.75104
G0 F7500 X108.306 Y103.259
G1 F1050 X105.759 Y105.806 E51.9008
G0 F7500 X105.759 Y105.24
G1 F1050 X107.741 Y103.259 E52.0173
G0 F7500 X107.175 Y103.259
G1 F1050 X105.759 Y104.675 E52.10056
G0 F7500 X105.759 Y104.109
G1 F1050 X106.609 Y103.259 E52.15053
G0 F7500 X106.044 Y103.259
G1 F1050 X105.759 Y103.543 E52.16726
G0 F7500 X105.81 Y103.543
G1 F2400 E45.66726
;MESH:NONMESH
G0 F300 X105.81 Y103.543 Z0.8
G0 F7500 X105.48 Y117.02
G1 F2400 E52.16726
G0 F7500 X105.2 Y117.3
;TIME_ELAPSED:72.474623
;LAYER:2
M106 S170
;TYPE:WALL-OUTER
;MESH:Body3.stl
G1 F450 X114.8 Y117.3 E52.56638
G1 X114.8 Y107.5 E52.97382
G1 X114.8 Y102.7 E53.17338
G1 X105.2 Y102.7 E53.5725
G1 X105.2 Y117.3 E54.1795
G0 F9000 X105.56 Y116.94
;TYPE:SKIN
G1 F900 X114.44 Y116.94 E54.54869
G1 X114.44 Y107.5 E54.94116
G1 X114.44 Y103.06 E55.12575
G1 X105.56 Y103.06 E55.49494
G1 X105.56 Y116.94 E56.072
G0 F9000 X105.991 Y116.739
G1 F900 X105.759 Y116.507 E56.08564
G0 F9000 X105.759 Y115.941
G1 F900 X106.556 Y116.739 E56.13253
G0 F9000 X107.122 Y116.739
G1 F900 X105.759 Y115.375 E56.2127
G0 F9000 X105.759 Y114.81
G1 F900 X107.688 Y116.739 E56.32612
G0 F9000 X108.253 Y116.739
G1 F900 X105.759 Y114.244 E56.47279
G0 F9000 X105.759 Y113.678
G1 F900 X108.819 Y116.739 E56.65273
G0 F9000 X109.385 Y116.739
G1 F900 X105.759 Y113.113 E56.86593
G0 F9000 X105.759 Y112.547
G1 F900 X109.95 Y116.739 E57.11237
G0 F9000 X110.516 Y116.739
G1 F900 X105.759 Y111.981 E57.39209
G0 F9000 X105.759 Y111.415
G1 F900 X111.082 Y116.739 E57.7051
G0 F9000 X111.647 Y116.739
G1 F900 X105.759 Y110.85 E58.05132
G0 F9000 X105.759 Y110.284
G1 F900 X112.213 Y116.739 E58.43082
G0 F9000 X112.779 Y116.739
G1 F900 X105.759 Y109.718 E58.84359
G0 F9000 X105.759 Y109.153
G1 F900 X113.344 Y116.739 E59.28959
G0 F9000 X113.91 Y116.739
G1 F900 X105.759 Y108.587 E59.76887
G0 F9000 X105.759 Y108.021
G1 F900 X114.24 Y116.502 E60.26752
G0 F9000 X114.24 Y115.937
G1 F900 X105.759 Y107.456 E60.76617
