;FLAVOR:Marlin
;TIME:256
;Filament used: 0.142821m
;Layer height: 0.2
;MINX:94
;MINY:91.5
;MINZ:0.2
;MAXX:126
;MAXY:128.5
;MAXZ:2.8
;Generated with Cura_SteamEngine 5.0.0
M104 S228
M105
M109 S228
M82 ;absolute extrusion mode
; Ender 3 Custom Start G-code
G92 E0 ; Reset Extruder
G28 ; Home all axes
G1 Z2.0 F3000 ; Move Z Axis up little to prevent scratching of Heat Bed
G1 X0.1 Y20 Z0.3 F5000.0 ; Move to start position
G1 X0.1 Y200.0 Z0.3 F1500.0 E15 ; Draw the first line
G1 X0.4 Y200.0 Z0.3 F5000.0 ; Move to side a little
G1 X0.4 Y20 Z0.3 F1500.0 E30 ; Draw the second line
G92 E0 ; Reset Extruder
G1 Z2.0 F3000 ; Move Z Axis up little to prevent scratching of Heat Bed
G1 X5 Y20 Z0.3 F5000.0 ; Move over to prevent blob squish
G92 E0
G92 E0
G1 F1500 E-6.5
;LAYER_COUNT:14
;LAYER:0
M107
G0 F6000 X97.198 Y94.764 Z0.2
G0 X94.001 Y103.025
;TYPE:SKIRT
G1 F1500 E0
G1 F1200 X94.01 Y102.36 E0.02212
G1 X94.063 Y101.424 E0.0533
G1 X94.195 Y100.495 E0.08451
G1 X94.406 Y99.581 E0.11571
G1 X94.694 Y98.689 E0.14689
G1 X95.057 Y97.824 E0.17809
G1 X95.492 Y96.993 E0.20928
G1 X95.996 Y96.203 E0.24045
G1 X96.566 Y95.458 E0.27165
G1 X97.198 Y94.764 E0.30287
G1 X97.886 Y94.127 E0.33405
G1 X98.626 Y93.551 E0.36524
G1 X99.412 Y93.039 E0.39644
G1 X100.239 Y92.597 E0.42763
G1 X101.101 Y92.227 E0.45883
G1 X101.991 Y91.931 E0.49003
G1 X102.903 Y91.713 E0.52122
G1 X103.83 Y91.572 E0.5524
G1 X104.701 Y91.513 E0.58144
G1 X105.33 Y91.5 E0.60236
G1 X114.293 Y91.5 E0.90047
G1 X115.149 Y91.511 E0.92895
G1 X116.085 Y91.565 E0.96013
G1 X117.013 Y91.697 E0.99131
G1 X117.927 Y91.909 E1.02251
G1 X118.819 Y92.198 E1.0537
G1 X119.684 Y92.561 E1.0849
G1 X120.514 Y92.997 E1.11608
G1 X121.305 Y93.502 E1.1473
G1 X122.049 Y94.073 E1.17849
G1 X122.742 Y94.705 E1.20968
G1 X123.379 Y95.393 E1.24087
G1 X123.954 Y96.134 E1.27207
G1 X124.465 Y96.92 E1.30325
G1 X124.907 Y97.748 E1.33446
G1 X125.276 Y98.61 E1.36565
G1 X125.571 Y99.5 E1.39684
G1 X125.789 Y100.412 E1.42802
G1 X125.929 Y101.34 E1.45924
G1 X125.987 Y102.201 E1.48794
G1 X126 Y102.83 E1.50887
G1 X125.999 Y116.9 E1.97684
G1 X125.99 Y117.627 E2.00102
G1 X125.939 Y118.564 E2.03223
G1 X125.807 Y119.492 E2.0634
G1 X125.598 Y120.406 E2.09459
G1 X125.311 Y121.299 E2.12579
G1 X124.949 Y122.165 E2.15701
G1 X124.515 Y122.996 E2.18819
G1 X124.011 Y123.787 E2.21938
G1 X123.442 Y124.532 E2.25056
G1 X122.811 Y125.227 E2.28178
G1 X122.124 Y125.865 E2.31297
G1 X121.385 Y126.442 E2.34415
G1 X120.599 Y126.954 E2.37535
G1 X119.773 Y127.397 E2.40652
G1 X118.911 Y127.769 E2.43775
G1 X118.022 Y128.065 E2.46892
G1 X117.11 Y128.285 E2.50012
G1 X116.183 Y128.426 E2.53131
G1 X115.299 Y128.487 E2.56078
G1 X114.67 Y128.5 E2.5817
G1 X105.565 Y128.499 E2.88454
G1 X104.867 Y128.49 E2.90775
G1 X103.931 Y128.438 E2.93893
G1 X103.002 Y128.306 E2.97014
G1 X102.088 Y128.096 E3.00133
G1 X101.195 Y127.809 E3.03253
G1 X100.33 Y127.446 E3.06373
G1 X99.499 Y127.012 E3.09491
G1 X98.708 Y126.508 E3.12611
G1 X97.963 Y125.938 E3.15731
G1 X97.269 Y125.307 E3.18851
G1 X96.632 Y124.62 E3.21967
G1 X96.055 Y123.88 E3.25088
G1 X95.543 Y123.094 E3.28208
G1 X95.1 Y122.267 E3.31328
G1 X94.729 Y121.406 E3.34446
G1 X94.433 Y120.516 E3.37566
G1 X94.214 Y119.604 E3.40685
G1 X94.073 Y118.677 E3.43804
G1 X94.013 Y117.788 E3.46768
G1 X94 Y117.158 E3.48863
G1 X94.001 Y103.025 E3.9587
G0 F6000 X94.401 Y103.031
G1 F1200 X94.41 Y102.366 E3.98082
G1 X94.462 Y101.446 E4.01147
G1 X94.594 Y100.535 E4.04208
G1 X94.805 Y99.639 E4.0727
G1 X95.092 Y98.764 E4.10333
G1 X95.455 Y97.918 E4.13395
G1 X95.889 Y97.106 E4.16457
G1 X96.392 Y96.335 E4.19519
G1 X96.961 Y95.611 E4.22582
G1 X97.589 Y94.939 E4.25641
G1 X98.274 Y94.323 E4.28705
G1 X99.01 Y93.77 E4.31767
G1 X99.791 Y93.282 E4.3483
G1 X100.611 Y92.864 E4.37891
G1 X101.465 Y92.519 E4.40954
G1 X102.345 Y92.249 E4.44016
G1 X103.245 Y92.057 E4.47077
G1 X104.159 Y91.943 E4.5014
G1 X104.712 Y91.913 E4.51982
G1 X105.33 Y91.9 E4.54038
G1 X114.293 Y91.9 E4.83849
G1 X115.143 Y91.911 E4.86677
G1 X116.062 Y91.964 E4.89738
G1 X116.973 Y92.097 E4.928
G1 X117.869 Y92.308 E4.95862
G1 X118.743 Y92.596 E4.98923
G1 X119.59 Y92.959 E5.01988
G1 X120.401 Y93.394 E5.05049
G1 X121.171 Y93.898 E5.08109
G1 X121.895 Y94.467 E5.11172
G1 X122.567 Y95.097 E5.14236
G1 X123.182 Y95.782 E5.17298
G1 X123.735 Y96.518 E5.2036
G1 X124.222 Y97.299 E5.23421
G1 X124.639 Y98.12 E5.26484
G1 X124.984 Y98.974 E5.29547
G1 X125.253 Y99.854 E5.32608
G1 X125.445 Y100.755 E5.35672
G1 X125.558 Y101.668 E5.38731
G1 X125.596 Y102.532 E5.41608
G1 X125.599 Y116.895 E5.89379
G1 X125.59 Y117.622 E5.91798
G1 X125.539 Y118.541 E5.94859
G1 X125.408 Y119.453 E5.97923
G1 X125.198 Y120.349 E6.00984
G1 X124.912 Y121.224 E6.04046
G1 X124.551 Y122.071 E6.07108
G1 X124.117 Y122.883 E6.10171
G1 X123.615 Y123.655 E6.13233
G1 X123.047 Y124.38 E6.16297
G1 X122.419 Y125.053 E6.19358
G1 X121.735 Y125.669 E6.2242
G1 X121 Y126.223 E6.25481
G1 X120.22 Y126.712 E6.28543
G1 X119.4 Y127.131 E6.31606
G1 X118.547 Y127.477 E6.34667
G1 X117.667 Y127.748 E6.3773
G1 X116.767 Y127.941 E6.40791
G1 X115.853 Y128.056 E6.43855
G1 X115.288 Y128.087 E6.45737
G1 X114.67 Y128.1 E6.47793
G1 X105.57 Y128.099 E6.7806
G1 X104.872 Y128.09 E6.80382
G1 X103.953 Y128.038 E6.83443
G1 X103.042 Y127.907 E6.86504
G1 X102.146 Y127.697 E6.89565
G1 X101.271 Y127.41 E6.92628
G1 X100.424 Y127.048 E6.95692
G1 X99.612 Y126.614 E6.98754
G1 X98.841 Y126.112 E7.01814
G1 X98.116 Y125.544 E7.04877
G1 X97.443 Y124.915 E7.07941
G1 X96.828 Y124.231 E7.11001
G1 X96.274 Y123.496 E7.14062
G1 X95.786 Y122.715 E7.17125
G1 X95.367 Y121.895 E7.20188
G1 X95.021 Y121.042 E7.23249
G1 X94.751 Y120.162 E7.26311
G1 X94.558 Y119.261 E7.29376
G1 X94.444 Y118.348 E7.32436
G1 X94.413 Y117.777 E7.34338
G1 X94.4 Y117.158 E7.36397
G1 X94.401 Y103.031 E7.83384
G0 F6000 X94.801 Y103.036
G1 F1200 X94.81 Y102.371 E7.85596
G1 X94.862 Y101.469 E7.88601
G1 X94.994 Y100.576 E7.91603
G1 X95.204 Y99.698 E7.94606
G1 X95.491 Y98.841 E7.97612
G1 X95.853 Y98.014 E8.00614
G1 X96.286 Y97.222 E8.03616
G1 X96.788 Y96.471 E8.06621
G1 X97.355 Y95.767 E8.09627
G1 X97.981 Y95.117 E8.12629
G1 X98.662 Y94.524 E8.15632
G1 X99.394 Y93.994 E8.18638
G1 X100.169 Y93.531 E8.21641
G1 X100.982 Y93.138 E8.24644
G1 X101.827 Y92.818 E8.27649
G1 X102.696 Y92.575 E8.30651
G1 X103.584 Y92.409 E8.33655
G1 X104.723 Y92.313 E8.37457
G1 X105.33 Y92.3 E8.39476
G1 X114.293 Y92.3 E8.69287
G1 X115.137 Y92.311 E8.72095
G1 X116.039 Y92.364 E8.751
G1 X116.932 Y92.496 E8.78102
G1 X117.81 Y92.707 E8.81106
G1 X118.666 Y92.995 E8.8411
G1 X119.493 Y93.357 E8.87112
G1 X120.285 Y93.792 E8.90118
G1 X121.036 Y94.294 E8.93122
G1 X121.739 Y94.861 E8.96126
G1 X122.389 Y95.488 E8.9913
G1 X122.981 Y96.17 E9.02134
G1 X123.511 Y96.901 E9.05137
G1 X123.973 Y97.677 E9.0814
G1 X124.366 Y98.49 E9.11144
G1 X124.684 Y99.335 E9.14147
G1 X124.927 Y100.205 E9.17151
G1 X125.092 Y101.093 E9.20155
G1 X125.187 Y102.223 E9.23927
G1 X125.2 Y102.83 E9.25946
G1 X125.199 Y116.89 E9.7271
G1 X125.19 Y117.617 E9.75128
G1 X125.139 Y118.519 E9.78133
G1 X125.008 Y119.413 E9.81138
G1 X124.799 Y120.291 E9.8414
G1 X124.513 Y121.148 E9.87145
G1 X124.152 Y121.976 E9.90149
G1 X123.72 Y122.768 E9.9315
G1 X123.219 Y123.52 E9.96155
G1 X122.653 Y124.224 E9.9916
G1 X122.028 Y124.875 E10.02161
G1 X121.347 Y125.469 E10.05167
G1 X120.616 Y126 E10.08172
G1 X119.842 Y126.464 E10.11173
G1 X119.029 Y126.858 E10.14178
G1 X118.185 Y127.178 E10.1718
G1 X117.315 Y127.423 E10.20187
G1 X116.428 Y127.589 E10.23188
G1 X115.277 Y127.687 E10.2703
G1 X114.67 Y127.7 E10.29049
G1 X105.575 Y127.699 E10.593
G1 X104.877 Y127.69 E10.61621
G1 X103.976 Y127.639 E10.64623
G1 X103.082 Y127.507 E10.67629
G1 X102.204 Y127.298 E10.7063
G1 X101.347 Y127.011 E10.73636
G1 X100.52 Y126.65 E10.76638
G1 X99.727 Y126.217 E10.79643
G1 X98.976 Y125.716 E10.82645
G1 X98.272 Y125.15 E10.8565
G1 X97.621 Y124.524 E10.88654
G1 X97.028 Y123.843 E10.91657
G1 X96.498 Y123.112 E10.9466
G1 X96.034 Y122.337 E10.97664
G1 X95.64 Y121.524 E11.00669
G1 X95.32 Y120.68 E11.03671
G1 X95.076 Y119.81 E11.06677
G1 X94.91 Y118.922 E11.09681
G1 X94.813 Y117.767 E11.13537
G1 X94.8 Y117.158 E11.15563
G1 X94.801 Y103.036 E11.62532
G1 F1500 E5.12532
;MESH:Body1.stl
G0 F6000 X104.335 Y103.036
G0 X105.43 Y103.036
G0 X105.58 Y116.92
G1 F1500 E11.62532
G0 F6000 X105.2 Y117.3
;TYPE:WALL-OUTER
G1 F1200 X114.8 Y117.3 E11.94462
G1 X114.8 Y107.5 E12.27057
G1 X114.8 Y102.7 E12.43022
G1 X105.2 Y102.7 E12.74952
G1 X105.2 Y117.3 E13.23512
G0 F6000 X105.6 Y116.9
;TYPE:WALL-INNER
G1 F1200 X114.4 Y116.9 E13.5278
G1 X114.4 Y107.5 E13.84045
G1 X114.4 Y103.1 E13.98679
G1 X105.6 Y103.1 E14.27948
G1 X105.6 Y116.9 E14.73847
G0 F6000 X105.96 Y116.54
;TYPE:SKIN
G1 F1200 X114.04 Y116.54 E15.00722
G1 X114.04 Y107.5 E15.30789
G1 X114.04 Y103.46 E15.44226
G1 X105.96 Y103.46 E15.711
G1 X105.96 Y116.54 E16.14604
G0 F6000 X106.722 Y116.338
G1 F1200 X106.159 Y115.776 E16.1725
G0 F6000 X106.159 Y115.21
G1 F1200 X107.287 Y116.338 E16.22556
G0 F6000 X107.853 Y116.338
G1 F1200 X106.159 Y114.644 E16.30524
G0 F6000 X106.159 Y114.078
G1 F1200 X108.419 Y116.338 E16.41154
G0 F6000 X108.984 Y116.338
G1 F1200 X106.159 Y113.513 E16.54442
G0 F6000 X106.159 Y112.947
G1 F1200 X109.55 Y116.338 E16.70392
G0 F6000 X110.116 Y116.338
G1 F1200 X106.159 Y112.381 E16.89005
G0 F6000 X106.159 Y111.816
G1 F1200 X110.682 Y116.338 E17.10277
G0 F6000 X111.247 Y116.338
G1 F1200 X106.159 Y111.25 E17.3421
G0 F6000 X106.159 Y110.684
G1 F1200 X111.813 Y116.338 E17.60804
G0 F6000 X112.379 Y116.338
G1 F1200 X106.159 Y110.119 E17.90059
G0 F6000 X106.159 Y109.553
G1 F1200 X112.944 Y116.338 E18.21974
G0 F6000 X113.51 Y116.338
G1 F1200 X106.159 Y108.987 E18.5655
G0 F6000 X106.159 Y108.422
G1 F1200 X113.839 Y116.102 E18.92675
G0 F6000 X113.839 Y115.537
G1 F1200 X106.159 Y107.856 E19.28802
G0 F6000 X106.159 Y107.29
G1 F1200 X113.839 Y114.971 E19.64928
G0 F6000 X113.839 Y114.405
G1 F1200 X106.159 Y106.725 E20.01053
G0 F6000 X106.159 Y106.159
G1 F1200 X113.839 Y113.839 E20.37177
G0 F6000 X113.839 Y113.274
G1 F1200 X106.159 Y105.593 E20.73304
G0 F6000 X106.159 Y105.027
G1 F1200 X113.839 Y112.708 E21.0943
G0 F6000 X113.839 Y112.142
G1 F1200 X106.159 Y104.462 E21.45555
G0 F6000 X106.159 Y103.896
G1 F1200 X113.839 Y111.577 E21.81682
G0 F6000 X113.839 Y111.011
G1 F1200 X106.488 Y103.66 E22.16258
G0 F6000 X107.054 Y103.66
G1 F1200 X113.839 Y110.445 E22.48173
G0 F6000 X113.839 Y109.88
G1 F1200 X107.62 Y103.66 E22.77428
G0 F6000 X108.185 Y103.66
G1 F1200 X113.839 Y109.314 E23.04022
G0 F6000 X113.839 Y108.748
G1 F1200 X108.751 Y103.66 E23.27955
G0 F6000 X109.317 Y103.66
G1 F1200 X113.839 Y108.183 E23.49227
G0 F6000 X113.839 Y107.617
G1 F1200 X109.882 Y103.66 E23.6784
G0 F6000 X110.448 Y103.66
G1 F1200 X113.839 Y107.051 E23.8379
G0 F6000 X113.839 Y106.486
G1 F1200 X111.014 Y103.66 E23.9708
G0 F6000 X111.58 Y103.66
G1 F1200 X113.839 Y105.92 E24.07708
G0 F6000 X113.839 Y105.354
G1 F1200 X112.145 Y103.66 E24.15676
G0 F6000 X112.711 Y103.66
G1 F1200 X113.839 Y104.788 E24.20982
G0 F6000 X113.839 Y104.223
G1 F1200 X113.277 Y103.66 E24.23628
G1 F1500 E17.73628
;MESH:NONMESH
G0 F300 X113.277 Y103.66 Z0.4
G0 F6000 X113.277 Y103.2
G0 X105.772 Y103.272
G0 X105.58 Y116.92
G1 F1500 E24.23628
G0 F6000 X105.2 Y117.3
;TIME_ELAPSED:46.590888
;LAYER:1
M106 S85
;TYPE:WALL-OUTER
;MESH:Body1.stl
G1 F1350 X114.8 Y117.3 E24.55557
G1 X114.8 Y107.5 E24.88152
G1 X114.8 Y102.7 E25.04117
G1 X105.2 Y102.7 E25.36047
G1 X105.2 Y117.3 E25.84607
G0 F7500 X105.6 Y116.9
;TYPE:WALL-INNER
G1 F1350 X114.4 Y116.9 E26.13876
G1 X114.4 Y107.5 E26.4514
G1 X114.4 Y103.1 E26.59775
G1 X105.6 Y103.1 E26.89044
G1 X105.6 Y116.9 E27.34943
G0 F7500 X105.96 Y116.54
;TYPE:SKIN
G1 F1350 X114.04 Y116.54 E27.61817
G1 X114.04 Y107.5 E27.91884
G1 X114.04 Y103.46 E28.05321
G1 X105.96 Y103.46 E28.32195
G1 X105.96 Y116.54 E28.75699
G0 F7500 X105.7 Y116.54
G0 X114.228 Y116.728
G0 X114.3 Y115.829
G0 X113.839 Y115.829
G1 F1350 X113.328 Y116.339 E28.78101
G0 F7500 X112.763 Y116.339
G1 F1350 X113.839 Y115.263 E28.83162
G0 F7500 X113.839 Y114.697
G1 F1350 X112.197 Y116.339 E28.90885
G0 F7500 X111.631 Y116.339
G1 F1350 X113.839 Y114.131 E29.01271
G0 F7500 X113.839 Y113.566
G1 F1350 X111.065 Y116.339 E29.14317
G0 F7500 X110.5 Y116.339
G1 F1350 X113.839 Y113 E29.30022
G0 F7500 X113.839 Y112.434
G1 F1350 X109.934 Y116.339 E29.4839
G0 F7500 X109.368 Y116.339
G1 F1350 X113.839 Y111.869 E29.69418
G0 F7500 X113.839 Y111.303
G1 F1350 X108.803 Y116.339 E29.93106
G0 F7500 X108.237 Y116.339
G1 F1350 X113.839 Y110.737 E30.19456
G0 F7500 X113.839 Y110.172
G1 F1350 X107.671 Y116.339 E30.48466
G0 F7500 X107.106 Y116.339
G1 F1350 X113.839 Y109.606 E30.80136
G0 F7500 X113.839 Y109.04
G1 F1350 X106.54 Y116.339 E31.14468
G0 F7500 X106.16 Y116.154
G1 F1350 X113.839 Y108.475 E31.50588
G0 F7500 X113.839 Y107.909
G1 F1350 X106.16 Y115.588 E31.86708
G0 F7500 X106.16 Y115.022
G1 F1350 X113.839 Y107.343 E32.22827
G0 F7500 X113.839 Y106.778
G1 F1350 X106.16 Y114.457 E32.58947
G0 F7500 X106.16 Y113.891
G1 F1350 X113.839 Y106.212 E32.95067
G0 F7500 X113.839 Y105.646
G1 F1350 X106.16 Y113.325 E33.31186
G0 F7500 X106.16 Y112.76
G1 F1350 X113.839 Y105.081 E33.67306
G0 F7500 X113.839 Y104.515
G1 F1350 X106.16 Y112.194 E34.03426
G0 F7500 X106.16 Y111.628
G1 F1350 X113.839 Y103.949 E34.39545
G0 F7500 X113.563 Y103.659
G1 F1350 X106.16 Y111.063 E34.74369
G0 F7500 X106.16 Y110.497
G1 F1350 X112.997 Y103.659 E35.06531
G0 F7500 X112.432 Y103.659
G1 F1350 X106.16 Y109.931 E35.36032
G0 F7500 X106.16 Y109.366
G1 F1350 X111.866 Y103.659 E35.62874
G0 F7500 X111.3 Y103.659
G1 F1350 X106.16 Y108.8 E35.87053
G0 F7500 X106.16 Y108.234
G1 F1350 X110.735 Y103.659 E36.08573
G0 F7500 X110.169 Y103.659
G1 F1350 X106.16 Y107.669 E36.27432
G0 F7500 X106.16 Y107.103
G1 F1350 X109.603 Y103.659 E36.43629
G0 F7500 X109.037 Y103.659
G1 F1350 X106.16 Y106.537 E36.57164
G0 F7500 X106.16 Y105.971
G1 F1350 X108.472 Y103.659 E36.68039
G0 F7500 X107.906 Y103.659
G1 F1350 X106.16 Y105.406 E36.76254
G0 F7500 X106.16 Y104.84
G1 F1350 X107.34 Y103.659 E36.81807
G0 F7500 X106.775 Y103.659
G1 F1350 X106.16 Y104.274 E36.84699
G1 F1500 E30.34699
;MESH:NONMESH
G0 F300 X106.16 Y104.274 Z0.6
G0 F7500 X105.7 Y104.274
G0 X105.58 Y116.92
G1 F1500 E36.84699
G0 F7500 X105.2 Y117.3
;TIME_ELAPSED:67.801078
;LAYER:2
M106 S170
;TYPE:WALL-OUTER
;MESH:Body1.stl
G1 F1500 X114.8 Y117.3 E37.16629
G1 X114.8 Y107.5 E37.49224
G1 X114.8 Y102.7 E37.65189
G1 X105.2 Y102.7 E37.97119
G1 X105.2 Y117.3 E38.45679
G0 F9000 X105.6 Y116.9
;TYPE:WALL-INNER
G1 F1500 X114.4 Y116.9 E38.74947
G1 X114.4 Y107.5 E39.06212
G1 X114.4 Y103.1 E39.20846
G1 X105.6 Y103.1 E39.50115
G1 X105.6 Y116.9 E39.96014
G0 F9000 X105.96 Y116.54
;TYPE:SKIN
G1 F1500 X114.04 Y116.54 E40.22889
G1 X114.04 Y103.46 E40.66393
G1 X110 Y103.46 E40.7983
G1 X105.96 Y103.46 E40.93267
G1 X105.96 Y116.54 E41.36771
G0 F9000 X106.722 Y116.338
G1 F1500 X106.159 Y115.776 E41.39417
G0 F9000 X106.159 Y115.21
G1 F1500 X107.287 Y116.338 E41.44723
G0 F9000 X107.853 Y116.338
G1 F1500 X106.159 Y114.644 E41.52691
G0 F9000 X106.159 Y114.078
G1 F1500 X108.419 Y116.338 E41.63321
G0 F9000 X108.984 Y116.338
G1 F1500 X106.159 Y113.513 E41.76609
G0 F9000 X106.159 Y112.947
G1 F1500 X109.55 Y116.338 E41.92559
G0 F9000 X110.116 Y116.338
G1 F1500 X106.159 Y112.381 E42.11172
G0 F9000 X106.159 Y111.816
G1 F1500 X110.682 Y116.338 E42.32444
G0 F9000 X111.247 Y116.338
G1 F1500 X106.159 Y111.25 E42.56377
G0 F9000 X106.159 Y110.684
G1 F1500 X111.813 Y116.338 E42.82971
G0 F9000 X112.379 Y116.338
G1 F1500 X106.159 Y110.119 E43.12226
G0 F9000 X106.159 Y109.553
G1 F1500 X112.944 Y116.338 E43.44141
G0 F9000 X113.51 Y116.338
G1 F1500 X106.159 Y108.987 E43.78717
G0 F9000 X106.159 Y108.422
G1 F1500 X113.839 Y116.102 E44.14842
G0 F9000 X113.839 Y115.537
G1 F1500 X106.159 Y107.856 E44.50969
G0 F9000 X106.159 Y107.29
G1 F1500 X113.839 Y114.971 E44.87095
G0 F9000 X113.839 Y114.405
G1 F1500 X106.159 Y106.725 E45.2322
G0 F9000 X106.159 Y106.159
G1 F1500 X113.839 Y113.839 E45.59344
G0 F9000 X113.839 Y113.274
G1 F1500 X106.159 Y105.593 E45.95471
G0 F9000 X106.159 Y105.027
G1 F1500 X113.839 Y112.708 E46.31597
G0 F9000 X113.839 Y112.142
