;FLAVOR:Marlin
;TIME:774
;Filament used: 0.143609m
;Layer height: 0.1
;MINX:94
;MINY:91.5
;MINZ:0.3
;MAXX:126
;MAXY:128.5
;MAXZ:2.9
;Generated with Cura_SteamEngine 5.0.0
M140 S60
M105
M190 S60
M104 S230
M105
M109 S230
M82 ;absolute extrusion mode
; Ender 3 Custom Start G-code
G92 E0 ; Reset Extruder
G28 ; Home all axes
G1 Z2.0 F3000 ; Move Z Axis up little to prevent scratching of Heat Bed
G1 X0.1 Y20 Z0.3 F5000.0 ; Move to start position
G1 X0.1 Y200.0 Z0.3 F1500.0 E15 ; Draw the first line
G1 X0.4 Y200.0 Z0.3 F5000.0 ; Move to side a little
G1 X0.4 Y20 Z0.3 F1500.0 E30 ; Draw the second line
G92 E0 ; Reset Extruder
G1 Z2.0 F3000 ; Move Z Axis up little to prevent scratching of Heat Bed
G1 X5 Y20 Z0.3 F5000.0 ; Move over to prevent blob squish
G92 E0
G92 E0
G1 F1200 E-6
;LAYER_COUNT:27
;LAYER:0
M107
G0 F6000 X97.198 Y94.764 Z0.3
G0 X94.001 Y103.025
;TYPE:SKIRT
G1 F1200 E0
G1 X94.01 Y102.36 E0.03318
G1 X94.063 Y101.424 E0.07995
G1 X94.195 Y100.495 E0.12677
G1 X94.406 Y99.581 E0.17356
G1 X94.694 Y98.689 E0.22033
G1 X95.057 Y97.824 E0.26713
G1 X95.492 Y96.993 E0.31393
G1 X95.996 Y96.203 E0.36068
G1 X96.566 Y95.458 E0.40748
G1 X97.198 Y94.764 E0.4543
G1 X97.886 Y94.127 E0.50108
G1 X98.626 Y93.551 E0.54787
G1 X99.412 Y93.039 E0.59467
G1 X100.239 Y92.597 E0.64145
G1 X101.101 Y92.227 E0.68825
G1 X101.991 Y91.931 E0.73504
G1 X102.903 Y91.713 E0.78182
G1 X103.83 Y91.572 E0.8286
G1 X104.701 Y91.513 E0.87216
G1 X105.33 Y91.5 E0.90355
G1 X114.293 Y91.5 E1.35071
G1 X115.149 Y91.511 E1.39342
G1 X116.085 Y91.565 E1.4402
G1 X117.013 Y91.697 E1.48696
G1 X117.927 Y91.909 E1.53377
G1 X118.819 Y92.198 E1.58055
G1 X119.684 Y92.561 E1.62735
G1 X120.514 Y92.997 E1.67412
G1 X121.305 Y93.502 E1.72094
G1 X122.049 Y94.073 E1.76773
G1 X122.742 Y94.705 E1.81453
G1 X123.379 Y95.393 E1.8613
G1 X123.954 Y96.134 E1.9081
G1 X124.465 Y96.92 E1.95487
G1 X124.907 Y97.748 E2.0017
G1 X125.276 Y98.61 E2.04848
G1 X125.571 Y99.5 E2.09525
G1 X125.789 Y100.412 E2.14204
G1 X125.929 Y101.34 E2.18886
G1 X125.987 Y102.201 E2.23191
G1 X126 Y102.83 E2.2633
G1 X125.999 Y116.9 E2.96525
G1 X125.99 Y117.627 E3.00153
G1 X125.939 Y118.564 E3.04834
G1 X125.807 Y119.492 E3.09511
G1 X125.598 Y120.406 E3.14188
G1 X125.311 Y121.299 E3.18868
G1 X124.949 Y122.165 E3.23551
G1 X124.515 Y122.996 E3.28228
G1 X124.011 Y123.787 E3.32907
G1 X123.442 Y124.532 E3.37584
G1 X122.811 Y125.227 E3.42268
G1 X122.124 Y125.865 E3.46945
G1 X121.385 Y126.442 E3.51623
G1 X120.599 Y126.954 E3.56303
G1 X119.773 Y127.397 E3.60979
G1 X118.911 Y127.769 E3.65663
G1 X118.022 Y128.065 E3.70337
G1 X117.11 Y128.285 E3.75018
G1 X116.183 Y128.426 E3.79696
G1 X115.299 Y128.487 E3.84117
G1 X114.67 Y128.5 E3.87255
G1 X105.565 Y128.499 E4.3268
G1 X104.867 Y128.49 E4.36163
G1 X103.931 Y128.438 E4.4084
G1 X103.002 Y128.306 E4.45521
G1 X102.088 Y128.096 E4.502
G1 X101.195 Y127.809 E4.5488
G1 X100.33 Y127.446 E4.5956
G1 X99.499 Y127.012 E4.64237
G1 X98.708 Y126.508 E4.68916
G1 X97.963 Y125.938 E4.73596
G1 X97.269 Y125.307 E4.78276
G1 X96.632 Y124.62 E4.8295
G1 X96.055 Y123.88 E4.87631
G1 X95.543 Y123.094 E4.92311
G1 X95.1 Y122.267 E4.96992
G1 X94.729 Y121.406 E5.01669
G1 X94.433 Y120.516 E5.06349
G1 X94.214 Y119.604 E5.11028
G1 X94.073 Y118.677 E5.15706
G1 X94.013 Y117.788 E5.20151
G1 X94 Y117.158 E5.23295
G1 X94.001 Y103.025 E5.93805
G0 F6000 X94.401 Y103.031
G1 F1200 X94.41 Y102.366 E5.97123
G1 X94.462 Y101.446 E6.0172
G1 X94.594 Y100.535 E6.06313
G1 X94.805 Y99.639 E6.10905
G1 X95.092 Y98.764 E6.15499
G1 X95.455 Y97.918 E6.20092
G1 X95.889 Y97.106 E6.24686
G1 X96.392 Y96.335 E6.29278
G1 X96.961 Y95.611 E6.33872
G1 X97.589 Y94.939 E6.38461
G1 X98.274 Y94.323 E6.43057
G1 X99.01 Y93.77 E6.4765
G1 X99.791 Y93.282 E6.52245
G1 X100.611 Y92.864 E6.56836
G1 X101.465 Y92.519 E6.61432
G1 X102.345 Y92.249 E6.66024
G1 X103.245 Y92.057 E6.70615
G1 X104.159 Y91.943 E6.7521
G1 X104.712 Y91.913 E6.77973
G1 X105.33 Y91.9 E6.81057
G1 X114.293 Y91.9 E7.25774
G1 X115.143 Y91.911 E7.30015
G1 X116.062 Y91.964 E7.34607
G1 X116.973 Y92.097 E7.39201
G1 X117.869 Y92.308 E7.43793
G1 X118.743 Y92.596 E7.48384
G1 X119.59 Y92.959 E7.52981
G1 X120.401 Y93.394 E7.57573
G1 X121.171 Y93.898 E7.62164
G1 X121.895 Y94.467 E7.66758
G1 X122.567 Y95.097 E7.71354
G1 X123.182 Y95.782 E7.75947
G1 X123.735 Y96.518 E7.80539
G1 X124.222 Y97.299 E7.85131
G1 X124.639 Y98.12 E7.89725
G1 X124.984 Y98.974 E7.9432
G1 X125.253 Y99.854 E7.98911
G1 X125.445 Y100.755 E8.03507
G1 X125.558 Y101.668 E8.08097
G1 X125.596 Y102.532 E8.12412
G1 X125.599 Y116.895 E8.84069
G1 X125.59 Y117.622 E8.87696
G1 X125.539 Y118.541 E8.92288
G1 X125.408 Y119.453 E8.96885
G1 X125.198 Y120.349 E9.01476
G1 X124.912 Y121.224 E9.06069
G1 X124.551 Y122.071 E9.10663
G1 X124.117 Y122.883 E9.15256
G1 X123.615 Y123.655 E9.1985
G1 X123.047 Y124.38 E9.24445
G1 X122.419 Y125.053 E9.29037
G1 X121.735 Y125.669 E9.3363
G1 X121 Y126.223 E9.38222
G1 X120.22 Y126.712 E9.42815
G1 X119.4 Y127.131 E9.47409
G1 X118.547 Y127.477 E9.52001
G1 X117.667 Y127.748 E9.56595
G1 X116.767 Y127.941 E9.61187
G1 X115.853 Y128.056 E9.65783
G1 X115.288 Y128.087 E9.68606
G1 X114.67 Y128.1 E9.7169
G1 X105.57 Y128.099 E10.1709
G1 X104.872 Y128.09 E10.20573
G1 X103.953 Y128.038 E10.25165
G1 X103.042 Y127.907 E10.29757
G1 X102.146 Y127.697 E10.34348
G1 X101.271 Y127.41 E10.38942
G1 X100.424 Y127.048 E10.43538
G1 X99.612 Y126.614 E10.48131
G1 X98.841 Y126.112 E10.52721
G1 X98.116 Y125.544 E10.57316
G1 X97.443 Y124.915 E10.61912
G1 X96.828 Y124.231 E10.66501
G1 X96.274 Y123.496 E10.71093
G1 X95.786 Y122.715 E10.75687
G1 X95.367 Y121.895 E10.80281
G1 X95.021 Y121.042 E10.84874
G1 X94.751 Y120.162 E10.89466
G1 X94.558 Y119.261 E10.94063
G1 X94.444 Y118.348 E10.98654
G1 X94.413 Y117.777 E11.01507
G1 X94.4 Y117.158 E11.04595
G1 X94.401 Y103.031 E11.75075
G0 F6000 X94.801 Y103.036
G1 F1200 X94.81 Y102.371 E11.78393
G1 X94.862 Y101.469 E11.82901
G1 X94.994 Y100.576 E11.87404
G1 X95.204 Y99.698 E11.91908
G1 X95.491 Y98.841 E11.96417
G1 X95.853 Y98.014 E12.00921
G1 X96.286 Y97.222 E12.05425
G1 X96.788 Y96.471 E12.09931
G1 X97.355 Y95.767 E12.14441
G1 X97.981 Y95.117 E12.18943
G1 X98.662 Y94.524 E12.23448
G1 X99.394 Y93.994 E12.27957
G1 X100.169 Y93.531 E12.32461
G1 X100.982 Y93.138 E12.36966
G1 X101.827 Y92.818 E12.41474
G1 X102.696 Y92.575 E12.45976
G1 X103.584 Y92.409 E12.50483
G1 X104.723 Y92.313 E12.56185
G1 X105.33 Y92.3 E12.59214
G1 X114.293 Y92.3 E13.03931
G1 X115.137 Y92.311 E13.08142
G1 X116.039 Y92.364 E13.1265
G1 X116.932 Y92.496 E13.17154
G1 X117.81 Y92.707 E13.21659
G1 X118.666 Y92.995 E13.26164
G1 X119.493 Y93.357 E13.30668
G1 X120.285 Y93.792 E13.35176
G1 X121.036 Y94.294 E13.39683
G1 X121.739 Y94.861 E13.44189
G1 X122.389 Y95.488 E13.48695
G1 X122.981 Y96.17 E13.532
G1 X123.511 Y96.901 E13.57705
G1 X123.973 Y97.677 E13.62211
G1 X124.366 Y98.49 E13.66716
G1 X124.684 Y99.335 E13.7122
G1 X124.927 Y100.205 E13.75727
G1 X125.092 Y101.093 E13.80233
G1 X125.187 Y102.223 E13.8589
G1 X125.2 Y102.83 E13.88919
G1 X125.199 Y116.89 E14.59065
G1 X125.19 Y117.617 E14.62692
G1 X125.139 Y118.519 E14.672
G1 X125.008 Y119.413 E14.71707
G1 X124.799 Y120.291 E14.7621
G1 X124.513 Y121.148 E14.80717
G1 X124.152 Y121.976 E14.85224
G1 X123.72 Y122.768 E14.89725
G1 X123.219 Y123.52 E14.94233
G1 X122.653 Y124.224 E14.9874
G1 X122.028 Y124.875 E15.03242
G1 X121.347 Y125.469 E15.0775
G1 X120.616 Y126 E15.12258
G1 X119.842 Y126.464 E15.1676
G1 X119.029 Y126.858 E15.21267
G1 X118.185 Y127.178 E15.25771
G1 X117.315 Y127.423 E15.3028
G1 X116.428 Y127.589 E15.34782
G1 X115.277 Y127.687 E15.40545
G1 X114.67 Y127.7 E15.43574
G1 X105.575 Y127.699 E15.88949
G1 X104.877 Y127.69 E15.92432
G1 X103.976 Y127.639 E15.96934
G1 X103.082 Y127.507 E16.01443
G1 X102.204 Y127.298 E16.05946
G1 X101.347 Y127.011 E16.10455
G1 X100.52 Y126.65 E16.14956
G1 X99.727 Y126.217 E16.19464
G1 X98.976 Y125.716 E16.23968
G1 X98.272 Y125.15 E16.28475
G1 X97.621 Y124.524 E16.3298
G1 X97.028 Y123.843 E16.37486
G1 X96.498 Y123.112 E16.4199
G1 X96.034 Y122.337 E16.46497
G1 X95.64 Y121.524 E16.51004
G1 X95.32 Y120.68 E16.55507
G1 X95.076 Y119.81 E16.60015
G1 X94.91 Y118.922 E16.64522
G1 X94.813 Y117.767 E16.70305
G1 X94.8 Y117.158 E16.73344
G1 X94.801 Y103.036 E17.43799
G1 F1200 E11.43799
;MESH:Body3.stl
G0 F6000 X104.335 Y103.036
G0 X105.43 Y103.036
G0 X105.58 Y116.92
G1 F1200 E17.43799
G0 F6000 X105.2 Y117.3
;TYPE:WALL-OUTER
G1 F1200 X114.8 Y117.3 E17.91693
G1 X114.8 Y107.5 E18.40586
G1 X114.8 Y102.7 E18.64533
G1 X105.2 Y102.7 E19.12428
G1 X105.2 Y117.3 E19.85267
G0 F6000 X105.6 Y116.9
;TYPE:WALL-INNER
G1 F1200 X114.4 Y116.9 E20.29171
G1 X114.4 Y107.5 E20.76067
G1 X114.4 Y103.1 E20.98019
G1 X105.6 Y103.1 E21.41923
G1 X105.6 Y116.9 E22.10771
G0 F6000 X105.96 Y116.54
;TYPE:SKIN
G1 F1200 X114.04 Y116.54 E22.51082
G1 X114.04 Y107.5 E22.96183
G1 X114.04 Y103.46 E23.16339
G1 X105.96 Y103.46 E23.5665
G1 X105.96 Y116.54 E24.21906
G0 F6000 X106.722 Y116.338
G1 F1200 X106.159 Y115.776 E24.25875
G0 F6000 X106.159 Y115.21
G1 F1200 X107.287 Y116.338 E24.33834
G0 F6000 X107.853 Y116.338
G1 F1200 X106.159 Y114.644 E24.45786
G0 F6000 X106.159 Y114.078
G1 F1200 X108.419 Y116.338 E24.61731
G0 F6000 X108.984 Y116.338
G1 F1200 X106.159 Y113.513 E24.81663
G0 F6000 X106.159 Y112.947
G1 F1200 X109.55 Y116.338 E25.05589
G0 F6000 X110.116 Y116.338
G1 F1200 X106.159 Y112.381 E25.33507
G0 F6000 X106.159 Y111.816
G1 F1200 X110.682 Y116.338 E25.65416
G0 F6000 X111.247 Y116.338
G1 F1200 X106.159 Y111.25 E26.01315
G0 F6000 X106.159 Y110.684
G1 F1200 X111.813 Y116.338 E26.41207
G0 F6000 X112.379 Y116.338
G1 F1200 X106.159 Y110.119 E26.85089
G0 F6000 X106.159 Y109.553
G1 F1200 X112.944 Y116.338 E27.3296
G0 F6000 X113.51 Y116.338
G1 F1200 X106.159 Y108.987 E27.84826
G0 F6000 X106.159 Y108.422
G1 F1200 X113.839 Y116.102 E28.39012
G0 F6000 X113.839 Y115.537
G1 F1200 X106.159 Y107.856 E28.93202
G0 F6000 X106.159 Y107.29
G1 F1200 X113.839 Y114.971 E29.47392
G0 F6000 X113.839 Y114.405
G1 F1200 X106.159 Y106.725 E30.01579
G0 F6000 X106.159 Y106.159
G1 F1200 X113.839 Y113.839 E30.55765
G0 F6000 X113.839 Y113.274
G1 F1200 X106.159 Y105.593 E31.09956
G0 F6000 X106.159 Y105.027
G1 F1200 X113.839 Y112.708 E31.64146
G0 F6000 X113.839 Y112.142
G1 F1200 X106.159 Y104.462 E32.18332
G0 F6000 X106.159 Y103.896
G1 F1200 X113.839 Y111.577 E32.72522
G0 F6000 X113.839 Y111.011
G1 F1200 X106.488 Y103.66 E33.24388
G0 F6000 X107.054 Y103.66
G1 F1200 X113.839 Y110.445 E33.72259
G0 F6000 X113.839 Y109.88
G1 F1200 X107.62 Y103.66 E34.16141
G0 F6000 X108.185 Y103.66
G1 F1200 X113.839 Y109.314 E34.56033
G0 F6000 X113.839 Y108.748
G1 F1200 X108.751 Y103.66 E34.91932
G0 F6000 X109.317 Y103.66
G1 F1200 X113.839 Y108.183 E35.23841
G0 F6000 X113.839 Y107.617
G1 F1200 X109.882 Y103.66 E35.51759
G0 F6000 X110.448 Y103.66
G1 F1200 X113.839 Y107.051 E35.75685
G0 F6000 X113.839 Y106.486
G1 F1200 X111.014 Y103.66 E35.9562
G0 F6000 X111.58 Y103.66
G1 F1200 X113.839 Y105.92 E36.11562
G0 F6000 X113.839 Y105.354
G1 F1200 X112.145 Y103.66 E36.23514
G0 F6000 X112.711 Y103.66
G1 F1200 X113.839 Y104.788 E36.31473
G0 F6000 X113.839 Y104.223
G1 F1200 X113.277 Y103.66 E36.35442
G1 F1200 E30.35442
;MESH:NONMESH
G0 F300 X113.277 Y103.66 Z0.4
G0 F6000 X113.277 Y103.2
G0 X105.772 Y103.272
G0 X105.58 Y116.92
G1 F1200 E36.35442
G0 F6000 X105.2 Y117.3
;TIME_ELAPSED:46.718496
;LAYER:1
M106 S85
;TYPE:WALL-OUTER
;MESH:Body3.stl
G1 F750 X114.8 Y117.3 E36.51406
G1 X114.8 Y107.5 E36.67704
G1 X114.8 Y102.7 E36.75686
G1 X105.2 Y102.7 E36.91651
G1 X105.2 Y117.3 E37.15931
G0 F7500 X105.6 Y116.9
;TYPE:WALL-INNER
G1 F750 X114.4 Y116.9 E37.30566
G1 X114.4 Y107.5 E37.46198
G1 X114.4 Y103.1 E37.53515
G1 X105.6 Y103.1 E37.6815
G1 X105.6 Y116.9 E37.91099
G0 F7500 X105.96 Y116.54
;TYPE:SKIN
G1 F1200 X114.04 Y116.54 E38.04536
G1 X114.04 Y107.5 E38.1957
G1 X114.04 Y103.46 E38.26288
G1 X105.96 Y103.46 E38.39725
G1 X105.96 Y116.54 E38.61477
G0 F7500 X105.7 Y116.54
G0 X114.228 Y116.728
G0 X114.3 Y115.829
G0 X113.839 Y115.829
G1 F1200 X113.328 Y116.339 E38.62678
G0 F7500 X112.763 Y116.339
G1 F1200 X113.839 Y115.263 E38.65209
G0 F7500 X113.839 Y114.697
G1 F1200 X112.197 Y116.339 E38.6907
G0 F7500 X111.631 Y116.339
G1 F1200 X113.839 Y114.131 E38.74263
G0 F7500 X113.839 Y113.566
G1 F1200 X111.065 Y116.339 E38.80786
G0 F7500 X110.5 Y116.339
G1 F1200 X113.839 Y113 E38.88639
G0 F7500 X113.839 Y112.434
G1 F1200 X109.934 Y116.339 E38.97823
G0 F7500 X109.368 Y116.339
G1 F1200 X113.839 Y111.869 E39.08337
G0 F7500 X113.839 Y111.303
G1 F1200 X108.803 Y116.339 E39.20181
G0 F7500 X108.237 Y116.339
G1 F1200 X113.839 Y110.737 E39.33356
G0 F7500 X113.839 Y110.172
G1 F1200 X107.671 Y116.339 E39.47861
G0 F7500 X107.106 Y116.339
G1 F1200 X113.839 Y109.606 E39.63696
G0 F7500 X113.839 Y109.04
G1 F1200 X106.54 Y116.339 E39.80862
G0 F7500 X106.16 Y116.154
G1 F1200 X113.839 Y108.475 E39.98922
G0 F7500 X113.839 Y107.909
G1 F1200 X106.16 Y115.588 E40.16982
G0 F7500 X106.16 Y115.022
G1 F1200 X113.839 Y107.343 E40.35041
G0 F7500 X113.839 Y106.778
G1 F1200 X106.16 Y114.457 E40.53101
G0 F7500 X106.16 Y113.891
G1 F1200 X113.839 Y106.212 E40.71161
G0 F7500 X113.839 Y105.646
G1 F1200 X106.16 Y113.325 E40.89221
G0 F7500 X106.16 Y112.76
G1 F1200 X113.839 Y105.081 E41.07281
G0 F7500 X113.839 Y104.515
G1 F1200 X106.16 Y112.194 E41.25341
G0 F7500 X106.16 Y111.628
G1 F1200 X113.839 Y103.949 E41.434
G0 F7500 X113.563 Y103.659
G1 F1200 X106.16 Y111.063 E41.60812
G0 F7500 X106.16 Y110.497
G1 F1200 X112.997 Y103.659 E41.76893
G0 F7500 X112.432 Y103.659
G1 F1200 X106.16 Y109.931 E41.91644
G0 F7500 X106.16 Y109.366
G1 F1200 X111.866 Y103.659 E42.05065
G0 F7500 X111.3 Y103.659
G1 F1200 X106.16 Y108.8 E42.17154
G0 F7500 X106.16 Y108.234
G1 F1200 X110.735 Y103.659 E42.27914
G0 F7500 X110.169 Y103.659
G1 F1200 X106.16 Y107.669 E42.37344
G0 F7500 X106.16 Y107.103
G1 F1200 X109.603 Y103.659 E42.45442
G0 F7500 X109.037 Y103.659
G1 F1200 X106.16 Y106.537 E42.5221
G0 F7500 X106.16 Y105.971
G1 F1200 X108.472 Y103.659 E42.57647
G0 F7500 X107.906 Y103.659
G1 F1200 X106.16 Y105.406 E42.61755
G0 F7500 X106.16 Y104.84
G1 F1200 X107.34 Y103.659 E42.64531
G0 F7500 X106.775 Y103.659
G1 F1200 X106.16 Y104.274 E42.65977
G1 F1200 E36.65977
;MESH:NONMESH
G0 F300 X106.16 Y104.274 Z0.5
G0 F7500 X105.7 Y104.274
G0 X105.58 Y116.92
G1 F1200 E42.65977
G0 F7500 X105.2 Y117.3
;TIME_ELAPSED:72.610621
;LAYER:2
M106 S170
;TYPE:WALL-OUTER
;MESH:Body3.stl
G1 F300 X114.8 Y117.3 E42.81942
G1 X114.8 Y107.5 E42.9824
G1 X114.8 Y102.7 E43.06222
G1 X105.2 Y102.7 E43.22187
G1 X105.2 Y117.3 E43.46467
G0 F9000 X105.6 Y116.9
;TYPE:WALL-INNER
G1 F300 X114.4 Y116.9 E43.61101
G1 X114.4 Y107.5 E43.76734
G1 X114.4 Y103.1 E43.84051
G1 X105.6 Y103.1 E43.98685
G1 X105.6 Y116.9 E44.21635
G0 F9000 X105.96 Y116.54
;TYPE:SKIN
G1 F1200 X114.04 Y116.54 E44.35072
G1 X114.04 Y107.5 E44.50106
G1 X114.04 Y103.46 E44.56824
G1 X105.96 Y103.46 E44.70261
G1 X105.96 Y116.54 E44.92013
G0 F9000 X106.722 Y116.338
G1 F1200 X106.159 Y115.776 E44.93336
G0 F9000 X106.159 Y115.21
G1 F1200 X107.287 Y116.338 E44.95989
G0 F9000 X107.853 Y116.338
G1 F1200 X106.159 Y114.644 E44.99973
G0 F9000 X106.159 Y114.078
G1 F1200 X108.419 Y116.338 E45.05288
G0 F9000 X108.984 Y116.338
G1 F1200 X106.159 Y113.513 E45.11932
G0 F9000 X106.159 Y112.947
G1 F1200 X109.55 Y116.338 E45.19907
G0 F9000 X110.116 Y116.338
G1 F1200 X106.159 Y112.381 E45.29214
G0 F9000 X106.159 Y111.816
G1 F1200 X110.682 Y116.338 E45.3985
G0 F9000 X111.247 Y116.338
G1 F1200 X106.159 Y111.25 E45.51816
G0 F9000 X106.159 Y110.684
G1 F1200 X111.813 Y116.338 E45.65113
G0 F9000 X112.379 Y116.338
G1 F1200 X106.159 Y110.119 E45.79741
G0 F9000 X106.159 Y109.553
G1 F1200 X112.944 Y116.338 E45.95698
G0 F9000 X113.51 Y116.338
G1 F1200 X106.159 Y108.987 E46.12986
G0 F9000 X106.159 Y108.422
G1 F1200 X113.839 Y116.102 E46.31049
G0 F9000 X113.839 Y115.537
G1 F1200 X106.159 Y107.856 E46.49112
G0 F9000 X106.159 Y107.29
G1 F1200 X113.839 Y114.971 E46.67175
G0 F9000 X113.839 Y114.405
G1 F1200 X106.159 Y106.725 E46.85238
G0 F9000 X106.159 Y106.159
G1 F1200 X113.839 Y113.839 E47.033
G0 F9000 X113.839 Y113.274
G1 F1200 X106.159 Y105.593 E47.21363
