;FLAVOR:Marlin
;TIME:1113
;Filament used: 0.699961m
;Layer height: 0.2
;MINX:82.5
;MINY:80
;MINZ:0.2
;MAXX:137.5
;MAXY:140
;MAXZ:3
;Generated with Cura_SteamEngine 5.0.0
M104 S228
M105
M109 S228
M82 ;absolute extrusion mode
; Ender 3 Custom Start G-code
G92 E0 ; Reset Extruder
G28 ; Home all axes
G1 Z2.0 F3000 ; Move Z Axis up little to prevent scratching of Heat Bed
G1 X0.1 Y20 Z0.3 F5000.0 ; Move to start position
G1 X0.1 Y200.0 Z0.3 F1500.0 E15 ; Draw the first line
G1 X0.4 Y200.0 Z0.3 F5000.0 ; Move to side a little
G1 X0.4 Y20 Z0.3 F1500.0 E30 ; Draw the second line
G92 E0 ; Reset Extruder
G1 Z2.0 F3000 ; Move Z Axis up little to prevent scratching of Heat Bed
G1 X5 Y20 Z0.3 F5000.0 ; Move over to prevent blob squish
G92 E0
G92 E0
G1 F1500 E-6.5
;LAYER_COUNT:15
;LAYER:0
M107
G0 F6000 X94.06 Y83.964 Z0.2
G0 X91.017 Y88.208
;TYPE:SKIRT
G1 F1500 E0
G1 F1200 X92.477 Y86.176 E0.08322
G1 X92.844 Y85.635 E0.10496
G1 X93.491 Y84.709 E0.14254
G1 X94.06 Y83.964 E0.17372
G1 X94.691 Y83.27 E0.20491
G1 X95.379 Y82.632 E0.23612
G1 X96.118 Y82.055 E0.2673
G1 X96.904 Y81.543 E0.2985
G1 X97.731 Y81.1 E0.32971
G1 X98.593 Y80.729 E0.36092
G1 X99.482 Y80.433 E0.39208
G1 X100.394 Y80.214 E0.42328
G1 X101.322 Y80.073 E0.4545
G1 X102.201 Y80.013 E0.4838
G1 X102.83 Y80 E0.50473
G1 X116.793 Y80 E0.96914
G1 X117.651 Y80.011 E0.99768
G1 X118.587 Y80.064 E1.02886
G1 X119.516 Y80.197 E1.06007
G1 X120.429 Y80.409 E1.09125
G1 X121.322 Y80.697 E1.12246
G1 X122.186 Y81.061 E1.15364
G1 X123.017 Y81.497 E1.18485
G1 X123.807 Y82.002 E1.21604
G1 X124.551 Y82.572 E1.24721
G1 X125.244 Y83.204 E1.27841
G1 X125.881 Y83.893 E1.30962
G1 X126.527 Y84.732 E1.34483
G1 X128.281 Y87.255 E1.44704
G1 X129.756 Y89.248 E1.5295
G1 X131.32 Y91.24 E1.61374
G1 X132.93 Y93.175 E1.69746
G1 X134.743 Y95.233 E1.78868
G1 X135.332 Y95.962 E1.81985
G1 X135.858 Y96.739 E1.85106
G1 X136.315 Y97.558 E1.88226
G1 X136.7 Y98.413 E1.91344
G1 X137.012 Y99.297 E1.94462
G1 X137.247 Y100.205 E1.97582
G1 X137.404 Y101.13 E2.00702
G1 X137.485 Y102.167 E2.04162
G1 X137.5 Y102.83 E2.06368
G1 X137.498 Y116.971 E2.53401
G1 X137.485 Y117.698 E2.55819
G1 X137.429 Y118.634 E2.58938
G1 X137.292 Y119.562 E2.62058
G1 X137.077 Y120.475 E2.65178
G1 X136.786 Y121.366 E2.68295
G1 X136.419 Y122.229 E2.71414
G1 X135.98 Y123.058 E2.74534
G1 X135.472 Y123.847 E2.77655
G1 X134.716 Y124.801 E2.81704
G1 X133.777 Y125.859 E2.86409
G1 X132.081 Y127.843 E2.9509
G1 X130.504 Y129.795 E3.03437
G1 X129.001 Y131.767 E3.11683
G1 X127.515 Y133.837 E3.20158
G1 X126.513 Y135.285 E3.26015
G1 X125.944 Y136.031 E3.29136
G1 X125.314 Y136.725 E3.32253
G1 X124.627 Y137.363 E3.35372
G1 X123.887 Y137.941 E3.38495
G1 X123.102 Y138.453 E3.41612
G1 X122.275 Y138.896 E3.44732
G1 X121.414 Y139.268 E3.47852
G1 X120.525 Y139.565 E3.50969
G1 X119.613 Y139.785 E3.5409
G1 X118.686 Y139.926 E3.57208
G1 X117.799 Y139.987 E3.60165
G1 X117.17 Y140 E3.62258
G1 X103.05 Y139.999 E4.09221
G1 X102.35 Y139.989 E4.1155
G1 X101.414 Y139.936 E4.14668
G1 X100.485 Y139.803 E4.17789
G1 X99.571 Y139.591 E4.2091
G1 X98.679 Y139.302 E4.24028
G1 X97.815 Y138.939 E4.27145
G1 X96.984 Y138.503 E4.30267
G1 X96.194 Y137.998 E4.33385
G1 X95.449 Y137.427 E4.36507
G1 X94.756 Y136.796 E4.39624
G1 X94.12 Y136.107 E4.42743
G1 X93.476 Y135.27 E4.46256
G1 X91.73 Y132.76 E4.56425
G1 X90.247 Y130.756 E4.64717
G1 X88.676 Y128.755 E4.73179
G1 X87.067 Y126.821 E4.81546
G1 X85.248 Y124.752 E4.90709
G1 X84.659 Y124.022 E4.93829
G1 X84.135 Y123.244 E4.96949
G1 X83.679 Y122.425 E5.00066
G1 X83.294 Y121.57 E5.03185
G1 X82.983 Y120.685 E5.06305
G1 X82.749 Y119.776 E5.09427
G1 X82.594 Y118.852 E5.12543
G1 X82.513 Y117.799 E5.16056
G1 X82.5 Y117.17 E5.18148
G1 X82.502 Y102.99 E5.65311
G1 X82.516 Y102.282 E5.67666
G1 X82.575 Y101.345 E5.70789
G1 X82.713 Y100.418 E5.73906
G1 X82.929 Y99.505 E5.77027
G1 X83.223 Y98.615 E5.80144
G1 X83.591 Y97.752 E5.83265
G1 X84.031 Y96.924 E5.86383
G1 X84.541 Y96.136 E5.89505
G1 X85.282 Y95.203 E5.93468
G1 X86.225 Y94.139 E5.98197
G1 X87.915 Y92.163 E6.06845
G1 X89.487 Y90.217 E6.15165
G1 X91.017 Y88.208 E6.23564
G1 F1500 E-0.26436
G0 F6000 X88.229 Y92.41
G1 F1500 E6.23564
G1 F1200 X89.8 Y90.464 E6.31883
G1 X91.339 Y88.444 E6.40329
G1 X92.805 Y86.404 E6.48684
G1 X93.172 Y85.864 E6.50856
G1 X93.819 Y84.938 E6.54613
G1 X94.378 Y84.207 E6.57674
G1 X94.999 Y83.527 E6.60737
G1 X95.677 Y82.904 E6.63799
G1 X96.406 Y82.342 E6.66861
G1 X97.181 Y81.845 E6.69923
G1 X97.996 Y81.417 E6.72985
G1 X98.846 Y81.062 E6.76048
G1 X99.723 Y80.781 E6.79111
G1 X100.621 Y80.578 E6.82174
G1 X101.533 Y80.454 E6.85235
G1 X102.212 Y80.413 E6.87497
G1 X102.83 Y80.4 E6.89553
G1 X116.793 Y80.4 E7.35994
G1 X117.645 Y80.411 E7.38828
G1 X118.564 Y80.464 E7.4189
G1 X119.475 Y80.597 E7.44952
G1 X120.371 Y80.808 E7.48014
G1 X121.246 Y81.096 E7.51078
G1 X122.092 Y81.459 E7.54139
G1 X122.903 Y81.894 E7.572
G1 X123.674 Y82.398 E7.60264
G1 X124.398 Y82.967 E7.63327
G1 X125.07 Y83.596 E7.66388
G1 X125.685 Y84.281 E7.6945
G1 X126.198 Y84.96 E7.7228
G1 X127.943 Y87.47 E7.82448
G1 X129.436 Y89.487 E7.90794
G1 X131.015 Y91.498 E7.99299
G1 X132.624 Y93.432 E8.07666
G1 X134.443 Y95.497 E8.16819
G1 X135.021 Y96.214 E8.19882
G1 X135.535 Y96.977 E8.22942
G1 X135.98 Y97.783 E8.26004
G1 X136.354 Y98.624 E8.29065
G1 X136.654 Y99.495 E8.32129
G1 X136.877 Y100.388 E8.35191
G1 X137.021 Y101.298 E8.38255
G1 X137.085 Y102.179 E8.41193
G1 X137.1 Y102.83 E8.43359
G1 X137.098 Y116.964 E8.90369
G1 X137.085 Y117.691 E8.92787
G1 X137.029 Y118.609 E8.95846
G1 X136.893 Y119.52 E8.9891
G1 X136.679 Y120.415 E9.0197
G1 X136.387 Y121.289 E9.05035
G1 X136.021 Y122.133 E9.08095
G1 X135.583 Y122.943 E9.11158
G1 X135.077 Y123.712 E9.14219
G1 X134.416 Y124.536 E9.17733
G1 X133.485 Y125.585 E9.22398
G1 X131.781 Y127.577 E9.31117
G1 X130.191 Y129.547 E9.39537
G1 X128.673 Y131.537 E9.47861
G1 X127.191 Y133.602 E9.56315
G1 X126.185 Y135.056 E9.62196
G1 X125.626 Y135.788 E9.65259
G1 X125.006 Y136.468 E9.6832
G1 X124.328 Y137.092 E9.71385
G1 X123.6 Y137.654 E9.74444
G1 X122.825 Y138.152 E9.77508
G1 X122.01 Y138.58 E9.80569
G1 X121.161 Y138.936 E9.83631
G1 X120.284 Y139.217 E9.86694
G1 X119.386 Y139.42 E9.89756
G1 X118.474 Y139.545 E9.92818
G1 X117.788 Y139.587 E9.95104
G1 X117.17 Y139.6 E9.9716
G1 X103.056 Y139.599 E10.44103
G1 X102.356 Y139.589 E10.46432
G1 X101.436 Y139.536 E10.49497
G1 X100.525 Y139.403 E10.52559
G1 X99.629 Y139.192 E10.55621
G1 X98.755 Y138.904 E10.58681
G1 X97.909 Y138.541 E10.61743
G1 X97.097 Y138.106 E10.64807
G1 X96.327 Y137.602 E10.67868
G1 X95.603 Y137.033 E10.70931
G1 X94.931 Y136.404 E10.73992
G1 X94.316 Y135.718 E10.77056
G1 X93.804 Y135.042 E10.79877
G1 X92.052 Y132.523 E10.90082
G1 X90.55 Y130.494 E10.98479
G1 X88.997 Y128.515 E11.06846
G1 X87.376 Y126.567 E11.15274
G1 X85.548 Y124.488 E11.24482
G1 X84.971 Y123.771 E11.27543
G1 X84.458 Y123.006 E11.30607
G1 X84.013 Y122.2 E11.33669
G1 X83.64 Y121.358 E11.36732
G1 X83.342 Y120.487 E11.39794
G1 X83.12 Y119.594 E11.42854
G1 X82.977 Y118.684 E11.45918
G1 X82.913 Y117.788 E11.48906
G1 X82.9 Y117.17 E11.50962
G1 X82.902 Y102.997 E11.98101
G1 X82.916 Y102.289 E12.00456
G1 X82.974 Y101.371 E12.03516
G1 X83.112 Y100.46 E12.0658
G1 X83.328 Y99.565 E12.09643
G1 X83.621 Y98.693 E12.12702
G1 X83.989 Y97.849 E12.15765
G1 X84.428 Y97.04 E12.18826
G1 X84.936 Y96.272 E12.21889
G1 X85.581 Y95.468 E12.25317
G1 X86.521 Y94.408 E12.30029
G1 X88.229 Y92.41 E12.38772
G1 F1500 E5.88772
G0 F6000 X83.302 Y103.005
G1 F1500 E12.38772
G1 F1200 X83.316 Y102.297 E12.41127
G1 X83.374 Y101.396 E12.4413
G1 X83.511 Y100.503 E12.47135
G1 X83.727 Y99.627 E12.50136
G1 X84.019 Y98.772 E12.53141
G1 X84.386 Y97.947 E12.56144
G1 X84.825 Y97.157 E12.5915
G1 X85.331 Y96.41 E12.62151
G1 X85.88 Y95.734 E12.65047
G1 X86.816 Y94.678 E12.69741
G1 X88.542 Y92.659 E12.78575
G1 X90.118 Y90.708 E12.86917
G1 X91.65 Y88.697 E12.95325
G1 X93.128 Y86.639 E13.03753
G1 X93.5 Y86.093 E13.0595
G1 X94.147 Y85.167 E13.09707
G1 X94.696 Y84.45 E13.12711
G1 X95.307 Y83.785 E13.15714
G1 X95.974 Y83.176 E13.18718
G1 X96.693 Y82.629 E13.21723
G1 X97.457 Y82.148 E13.24726
G1 X98.26 Y81.736 E13.27728
G1 X99.097 Y81.396 E13.30733
G1 X99.961 Y81.132 E13.33737
G1 X100.844 Y80.946 E13.36739
G1 X101.741 Y80.838 E13.39744
G1 X102.545 Y80.804 E13.4242
G1 X116.793 Y80.8 E13.89809
G1 X117.639 Y80.811 E13.92623
G1 X118.541 Y80.864 E13.95628
G1 X119.434 Y80.996 E13.98631
G1 X120.313 Y81.207 E14.01638
G1 X121.169 Y81.495 E14.04641
G1 X121.996 Y81.857 E14.07644
G1 X122.788 Y82.291 E14.10648
G1 X123.538 Y82.794 E14.13651
G1 X124.241 Y83.361 E14.16655
G1 X124.891 Y83.987 E14.19657
G1 X125.484 Y84.669 E14.22663
G1 X125.87 Y85.189 E14.24817
G1 X127.625 Y87.714 E14.35044
G1 X129.115 Y89.726 E14.43371
G1 X130.708 Y91.755 E14.51951
G1 X132.3 Y93.669 E14.60231
G1 X134.143 Y95.761 E14.69504
G1 X134.709 Y96.465 E14.72509
G1 X135.211 Y97.215 E14.75511
G1 X135.645 Y98.008 E14.78517
G1 X136.007 Y98.835 E14.8152
G1 X136.294 Y99.691 E14.84523
G1 X136.505 Y100.569 E14.87526
G1 X136.637 Y101.463 E14.90532
G1 X136.685 Y102.191 E14.92958
G1 X136.7 Y102.83 E14.95084
G1 X136.698 Y116.956 E15.42068
G1 X136.685 Y117.683 E15.44486
G1 X136.629 Y118.585 E15.47492
G1 X136.494 Y119.478 E15.50496
G1 X136.28 Y120.355 E15.53498
G1 X135.989 Y121.21 E15.56502
G1 X135.623 Y122.036 E15.59507
G1 X135.187 Y122.826 E15.62508
G1 X134.681 Y123.575 E15.65515
G1 X134.117 Y124.27 E15.68492
G1 X133.19 Y125.315 E15.73138
G1 X131.468 Y127.329 E15.81951
G1 X129.877 Y129.298 E15.90371
G1 X128.346 Y131.307 E15.98772
G1 X126.862 Y133.374 E16.07235
G1 X126.531 Y133.862 E16.09196
G1 X125.857 Y134.828 E16.13114
G1 X125.308 Y135.545 E16.16117
G1 X124.698 Y136.21 E16.19119
G1 X124.031 Y136.819 E16.22123
G1 X123.313 Y137.367 E16.25127
G1 X122.549 Y137.849 E16.28131
G1 X121.746 Y138.262 E16.31135
G1 X120.909 Y138.602 E16.3414
G1 X120.046 Y138.866 E16.37141
G1 X119.162 Y139.053 E16.40147
G1 X118.266 Y139.162 E16.43149
G1 X117.455 Y139.196 E16.45848
G1 X103.061 Y139.199 E16.93723
G1 X102.361 Y139.189 E16.96051
G1 X101.46 Y139.136 E16.99053
G1 X100.566 Y139.004 E17.02059
G1 X99.688 Y138.793 E17.05062
G1 X98.832 Y138.505 E17.08066
G1 X98.005 Y138.143 E17.11069
G1 X97.213 Y137.709 E17.14073
G1 X96.463 Y137.206 E17.17076
G1 X95.76 Y136.639 E17.2008
G1 X95.109 Y136.013 E17.23084
G1 X94.517 Y135.331 E17.26088
G1 X94.133 Y134.814 E17.2823
G1 X92.375 Y132.286 E17.38471
G1 X90.871 Y130.255 E17.46877
G1 X89.32 Y128.279 E17.55232
G1 X87.665 Y126.29 E17.63838
G1 X85.849 Y124.224 E17.72987
G1 X85.283 Y123.52 E17.75991
G1 X84.782 Y122.769 E17.78994
G1 X84.349 Y121.976 E17.81999
G1 X83.988 Y121.148 E17.85003
G1 X83.702 Y120.292 E17.88005
G1 X83.492 Y119.413 E17.91011
G1 X83.361 Y118.52 E17.94013
G1 X83.313 Y117.777 E17.96489
G1 X83.3 Y117.17 E17.98508
G1 X83.302 Y103.005 E18.45621
G1 F1500 E11.95621
;MESH:Body3.stl(4)
G0 F6000 X101.835 Y100.576
G0 X102.924 Y100.576
G1 F1500 E18.45621
G0 F6000 X102.7 Y100.8
;TYPE:WALL-OUTER
G1 F1200 X117.3 Y100.8 E18.94181
G1 X117.3 Y96 E19.10146
G1 X117.3 Y91.2 E19.26111
G1 X102.7 Y91.2 E19.74671
G1 X102.7 Y100.8 E20.066
G0 F6000 X103.1 Y100.4
;TYPE:WALL-INNER
G1 F1200 X116.9 Y100.4 E20.52499
G1 X116.9 Y96 E20.67134
G1 X116.9 Y91.6 E20.81768
G1 X103.1 Y91.6 E21.27667
G1 X103.1 Y100.4 E21.56936
G0 F6000 X103.46 Y100.04
;TYPE:SKIN
G1 F1200 X116.54 Y100.04 E22.0044
G1 X116.54 Y96 E22.13878
G1 X116.54 Y91.96 E22.27315
G1 X103.46 Y91.96 E22.70819
G1 X103.46 Y100.04 E22.97693
G0 F6000 X103.799 Y99.839
G1 F1200 X103.659 Y99.699 E22.98352
G0 F6000 X103.659 Y99.133
G1 F1200 X104.365 Y99.839 E23.01672
G0 F6000 X104.931 Y99.839
G1 F1200 X103.659 Y98.567 E23.07656
G0 F6000 X103.659 Y98.002
G1 F1200 X105.496 Y99.839 E23.16296
G0 F6000 X106.062 Y99.839
G1 F1200 X103.659 Y97.436 E23.27599
G0 F6000 X103.659 Y96.87
G1 F1200 X106.628 Y99.839 E23.41564
G0 F6000 X107.193 Y99.839
G1 F1200 X103.659 Y96.305 E23.58187
G0 F6000 X103.659 Y95.739
G1 F1200 X107.759 Y99.839 E23.77472
G0 F6000 X108.325 Y99.839
G1 F1200 X103.659 Y95.173 E23.9942
G0 F6000 X103.659 Y94.608
G1 F1200 X108.89 Y99.839 E24.24025
G0 F6000 X109.456 Y99.839
G1 F1200 X103.659 Y94.042 E24.51292
G0 F6000 X103.659 Y93.476
G1 F1200 X110.022 Y99.839 E24.81222
G0 F6000 X110.587 Y99.839
G1 F1200 X103.659 Y92.911 E25.13809
G0 F6000 X103.659 Y92.345
G1 F1200 X111.153 Y99.839 E25.49058
G0 F6000 X111.719 Y99.839
G1 F1200 X104.039 Y92.16 E25.8518
G0 F6000 X104.605 Y92.16
G1 F1200 X112.285 Y99.839 E26.21303
G0 F6000 X112.85 Y99.839
G1 F1200 X105.17 Y92.16 E26.57425
G0 F6000 X105.736 Y92.16
G1 F1200 X113.416 Y99.839 E26.93547
G0 F6000 X113.982 Y99.839
G1 F1200 X106.302 Y92.16 E27.29669
G0 F6000 X106.867 Y92.16
G1 F1200 X114.547 Y99.839 E27.65791
G0 F6000 X115.113 Y99.839
G1 F1200 X107.433 Y92.16 E28.01913
G0 F6000 X107.999 Y92.16
G1 F1200 X115.679 Y99.839 E28.38035
G0 F6000 X116.244 Y99.839
G1 F1200 X108.564 Y92.16 E28.74157
G0 F6000 X109.13 Y92.16
G1 F1200 X116.339 Y99.369 E29.08066
G0 F6000 X116.339 Y98.803
G1 F1200 X109.696 Y92.16 E29.39312
G0 F6000 X110.261 Y92.16
G1 F1200 X116.339 Y98.237 E29.67899
G0 F6000 X116.339 Y97.671
G1 F1200 X110.827 Y92.16 E29.93823
G0 F6000 X111.393 Y92.16
G1 F1200 X116.339 Y97.106 E30.17088
G0 F6000 X116.339 Y96.54
G1 F1200 X111.959 Y92.16 E30.3769
G0 F6000 X112.524 Y92.16
G1 F1200 X116.339 Y95.974 E30.55632
G0 F6000 X116.339 Y95.409
G1 F1200 X113.09 Y92.16 E30.70914
G0 F6000 X113.656 Y92.16
G1 F1200 X116.339 Y94.843 E30.83534
G0 F6000 X116.339 Y94.277
G1 F1200 X114.221 Y92.16 E30.93495
G0 F6000 X114.787 Y92.16
G1 F1200 X116.339 Y93.712 E31.00795
G0 F6000 X116.339 Y93.146
G1 F1200 X115.353 Y92.16 E31.05433
G0 F6000 X115.918 Y92.16
G1 F1200 X116.339 Y92.58 E31.0741
G1 F1500 E24.5741
;MESH:Body3.stl
G0 F6000 X116.8 Y92.58
G0 X116.728 Y100.228
G0 X105.58 Y100.57
G0 X105.58 Y102.93
G0 X105.58 Y116.92
G1 F1500 E31.0741
G0 F6000 X105.2 Y117.3
;TYPE:WALL-OUTER
G1 F1200 X114.8 Y117.3 E31.3934
G1 X114.8 Y107.5 E31.71935
G1 X114.8 Y102.7 E31.879
G1 X105.2 Y102.7 E32.1983
G1 X105.2 Y117.3 E32.68389
G0 F6000 X105.6 Y116.9
;TYPE:WALL-INNER
G1 F1200 X114.4 Y116.9 E32.97658
G1 X114.4 Y107.5 E33.28923
G1 X114.4 Y103.1 E33.43557
G1 X105.6 Y103.1 E33.72826
G1 X105.6 Y116.9 E34.18725
G0 F6000 X105.96 Y116.54
;TYPE:SKIN
G1 F1200 X114.04 Y116.54 E34.45599
G1 X114.04 Y107.5 E34.75667
G1 X114.04 Y103.46 E34.89104
G1 X105.96 Y103.46 E35.15978
G1 X105.96 Y116.54 E35.59482
G0 F6000 X106.722 Y116.338
G1 F1200 X106.159 Y115.776 E35.62128
G0 F6000 X106.159 Y115.21
G1 F1200 X107.287 Y116.338 E35.67434
G0 F6000 X107.853 Y116.338
G1 F1200 X106.159 Y114.644 E35.75402
G0 F6000 X106.159 Y114.078
G1 F1200 X108.419 Y116.338 E35.86032
G0 F6000 X108.984 Y116.338
G1 F1200 X106.159 Y113.513 E35.9932
G0 F6000 X106.159 Y112.947
G1 F1200 X109.55 Y116.338 E36.1527
G0 F6000 X110.116 Y116.338
G1 F1200 X106.159 Y112.381 E36.33883
G0 F6000 X106.159 Y111.816
G1 F1200 X110.682 Y116.338 E36.55155
G0 F6000 X111.247 Y116.338
G1 F1200 X106.159 Y111.25 E36.79088
G0 F6000 X106.159 Y110.684
G1 F1200 X111.813 Y116.338 E37.05682
G0 F6000 X112.379 Y116.338
G1 F1200 X106.159 Y110.119 E37.34937
G0 F6000 X106.159 Y109.553
G1 F1200 X112.944 Y116.338 E37.66852
G0 F6000 X113.51 Y116.338
G1 F1200 X106.159 Y108.987 E38.01428
G0 F6000 X106.159 Y108.422
G1 F1200 X113.839 Y116.102 E38.37553
G0 F6000 X113.839 Y115.537
G1 F1200 X106.159 Y107.856 E38.73679
G0 F6000 X106.159 Y107.29
G1 F1200 X113.839 Y114.971 E39.09806
G0 F6000 X113.839 Y114.405
G1 F1200 X106.159 Y106.725 E39.45931
G0 F6000 X106.159 Y106.159
G1 F1200 X113.839 Y113.839 E39.82055
G0 F6000 X113.839 Y113.274
G1 F1200 X106.159 Y105.593 E40.18182
G0 F6000 X106.159 Y105.027
G1 F1200 X113.839 Y112.708 E40.54308
G0 F6000 X113.839 Y112.142
G1 F1200 X106.159 Y104.462 E40.90433
G0 F6000 X106.159 Y103.896
G1 F1200 X113.839 Y111.577 E41.26559
G0 F6000 X113.839 Y111.011
G1 F1200 X106.488 Y103.66 E41.61136
G0 F6000 X107.054 Y103.66
G1 F1200 X113.839 Y110.445 E41.93051
G0 F6000 X113.839 Y109.88
G1 F1200 X107.62 Y103.66 E42.22305
G0 F6000 X108.185 Y103.66
G1 F1200 X113.839 Y109.314 E42.489
G0 F6000 X113.839 Y108.748
G1 F1200 X108.751 Y103.66 E42.72833
G0 F6000 X109.317 Y103.66
